hhuang-xu/fluxvla_franka_controllers/examples/replay.csv
time,left_q1,left_q2,left_q3,left_q4,left_q5,left_q6,left_q7,right_q1,right_q2,right_q3,right_q4,right_q5,right_q6,right_q7,left_x,left_y,left_z,left_qx,left_qy,left_qz,left_qw,right_x,right_y,right_z,right_qx,right_qy,right_qz,right_qw,left_gripper,right_gripper
1780538689.4416115,5.189427095105556e-06,-0.7850842367452218,-0.0002533426807402304,-2.356486888662909,-0.00027708121010526753,1.5708913439375667,0.7849364607148919,0.00010892049501196551,-0.7852027682877349,-0.0008789900627727768,-2.3568189327919384,-0.000159589874516416,1.570962172019987,0.785622625666158,0.3069800000596087,-0.00013925494560231252,0.48679739435904545,0.9999999514830977,0.0001439192446434409,-0.00025567756268229225,4.891729293245874e-05,0.3069340466749812,-0.00028645457242157163,0.4866831352237112,0.9999998476842968,-0.00036846055353609216,-0.00032705949656019437,-0.00023096136542345385,0.08084485679864883,0.08080349117517471
1780538689.4749682,8.708518924859667e-06,-0.7849350972259943,-0.00033512425550811354,-2.3565124599217433,-0.0002782499452281488,1.5708916057806537,0.7849352089302618,0.00011008200880694798,-0.7852023297574404,-0.0011467268572683538,-2.3568602644143364,-0.00016084132925387183,1.570966228630135,0.7856218048137364,0.30699970114160025,-0.0001650655055575663,0.4867395511591293,0.9999999298289909,0.00011739388112011516,-0.0003428996081222994,2.057700303283307e-05,0.3069296066299228,-0.00037355164920251506,0.4866637742654832,0.9999997762967499,-0.0004621065268840607,-0.00034593977829408377,-0.0003250116010168583,0.08084485679864883,0.08080349117517471
1780538689.508325,6.592393781532122e-06,-0.7846535091907746,-0.0005114183746236807,-2.3565129916862646,-0.0002823329301374132,1.5708911997316404,0.784936137290398,0.00011307631881117166,-0.7851965505595551,-0.0013523602322214076,-2.3568781202540356,-0.00016044826601849068,1.5709678625262105,0.7856175062227098,0.3070428016604965,-0.00022401777267761497,0.4866527863938894,0.9999998762958205,5.353016373036617e-05,-0.0004841578391711926,-3.9710401605031346e-05,0.3069284923220098,-0.00043951704573227105,0.48665364981692055,0.99999971178165,-0.0005311481186610561,-0.0003569579808782353,-0.0003979222977401219,0.08084485679864883,0.08080349117517471
1780538689.540912,9.367193839223695e-06,-0.7843484302122251,-0.0006747421793788228,-2.356513370036724,-0.000282715622833079,1.5708908935619283,0.7849285453346013,0.00011164107677803717,-0.7851965495364688,-0.0014982585427791406,-2.3568907332689797,-0.00016120439881148175,1.5709673556696953,0.7856280667409273,0.30708952239418275,-0.0002764634185381538,0.48655887231898765,0.9999997880859847,9.401791769079912e-07,-0.0006370344132245555,-9.724773795171766e-05,0.3069267206218755,-0.0004876281124615036,0.48664759859362305,0.9999996554880101,-0.0005887166511261457,-0.00036353330583835115,-0.00044913579550718544,0.08084485679864883,0.08080349117517471
1780538689.5728595,1.285181055126472e-05,-0.7841139732306363,-0.0007463026456536039,-2.356513435255976,-0.00027998054006265983,1.5708940261091504,0.7849336007523977,0.00011779639036803375,-0.7851969981796887,-0.0015765229607576582,-2.3569001655450377,-0.00016032843196590012,1.570967400936578,0.7856247216548454,0.3071261548292439,-0.00029813517594389356,0.48648709813878127,0.9999997044304731,-2.517181217144538e-05,-0.0007527268138711715,-0.00012389735256420503,0.30692542754341384,-0.0005110389336116618,0.48664325769810785,0.9999996270762795,-0.0006116297461736533,-0.000368009933413673,-0.00047725035969053764,0.08084485679864883,0.08080349117517471
1780538689.603933,1.0675451465247882e-05,-0.7839896511133714,-0.0007514782359090179,-2.3565122359794253,-0.00027977867453267635,1.5708904808998776,0.7849283812754355,0.00011479703531914338,-0.7851985100568053,-0.0015769986693021016,-2.3568994116300126,-0.00016031963830457656,1.5709705932599662,0.7856203116479727,0.30714464051232815,-0.0003004472570057751,0.4864491685784024,0.9999996545030695,-2.5489002020303798e-05,-0.0008160601460218431,-0.000125828276511265,0.30692596216082113,-0.0005121140569529386,0.48664435791945787,0.9999996283225747,-0.0006110932248364811,-0.0003652791485132586,-0.0004774241175004305,0.08084485679864883,0.08080349117517471
1780538689.6403732,1.0675451466063303e-05,-0.7839497445000223,-0.0007527075889982091,-2.356513436173178,-0.00028188979789525286,1.570895006790043,0.7849313789908764,0.00012054818356351682,-0.7851945603595741,-0.001580794240527509,-2.3569004285321355,-0.0001595868798136615,1.5709682800312732,0.7856277097711801,0.3071515618278334,-0.0003012921434990162,0.486436741182183,0.9999996394362414,-2.742433455917604e-05,-0.0008343512700150767,-0.00012520429479028045,0.30692595344393714,-0.000511429494060862,0.48664246102621034,0.999999624843868,-0.0006132586913239084,-0.00036892240141371665,-0.0004791294436288367,0.08084485679864883,0.08080349117517471
1780538689.6713748,1.2010011867437582e-05,-0.7839467785529403,-0.0007559072611176272,-2.356512992534706,-0.0002828711513043383,1.5708959225340569,0.7849269280446857,0.00011970090718053915,-0.7851984453652497,-0.0015847746351031382,-2.356902197446837,-0.00015805540732174487,1.570966656783422,0.7856202638335992,0.30715226644195753,-0.0003021315447058645,0.4864361191029941,0.9999996387320494,-2.566340849833314e-05,-0.0008351545002723788,-0.00012584508481305198,0.3069247864280546,-0.0005126621632816023,0.48664267446512344,0.9999996250496633,-0.0006113649337535981,-0.0003686740476523919,-0.00048130630386972623,0.08084485679864883,0.08080349117517471
1780538689.706922,1.0525826039341524e-05,-0.7839437846010432,-0.0007610387169880825,-2.3565133767736746,-0.00028395480490023,1.5708954116539156,0.7849300354740892,0.00012265447112146994,-0.7851962728702051,-0.001590129116354136,-2.3569044231410614,-0.00015881321160125052,1.5709668137109178,0.7856218584322644,0.30715256712844113,-0.0003044872572072979,0.4864349721985433,0.9999996368313189,-2.977414902514316e-05,-0.0008370992479823699,-0.00012711586832163784,0.3069248671368498,-0.0005136575216254336,0.48664096842837,0.9999996227931782,-0.0006125778700918747,-0.0003707963961773505,-0.0004828195812567228,0.08084485679864883,0.08080349117517471
1780538689.7398303,1.1909022003196959e-05,-0.7839451371765722,-0.0007610656223860342,-2.3565143574364993,-0.00028086974641389217,1.5708950270520903,0.7849336664085734,0.00011994573438437184,-0.7851924144732109,-0.001594596046759329,-2.356906739139351,-0.0001618436781586693,1.5709718244418427,0.7856265516500898,0.3071521531371641,-0.0003034217385690311,0.48643489122931993,0.9999996365936885,-3.090866810753884e-05,-0.0008371051461439224,-0.0001286661719043693,0.30692621373992746,-0.0005165811882222105,0.48663912856301705,0.9999996192980668,-0.0006178584521175725,-0.0003713796966157269,-0.0004828815970550215,0.08084485679864883,0.08080349117517471
1780538689.7709148,1.0911238810784859e-05,-0.7839461333684935,-0.0007613908766597038,-2.356513480193077,-0.00027823672700296375,1.5708953078086698,0.7849269866665156,0.00012454437163926063,-0.7852009197041514,-0.0015950722835971418,-2.3569060534122546,-0.00015957226682987105,1.5709721240185333,0.7856269334365847,0.30715217224408164,-0.0003032805484493389,0.4864356359449986,0.9999996373906384,-2.8184119695685133e-05,-0.000836026889016071,-0.00013010054842901397,0.3069250607155642,-0.0005148476875065652,0.4866420893729865,0.9999996216147602,-0.000615917229773509,-0.00036663523757057327,-0.00048418773862234137,0.08084485679864883,0.08080349117517471
1780538689.8085375,1.2180493151539885e-05,-0.7839417158311535,-0.0007606716162589257,-2.3565129746888887,-0.0002818902846163519,1.5708958826667692,0.7849263224564959,0.00011830889816142527,-0.7851982706570801,-0.0015905097938170728,-2.3569124029880353,-0.00016108604203411508,1.5709719888557974,0.7856227262497916,0.30715303629029533,-0.00030342523602782566,0.48643456802458934,0.9999996362957949,-2.6961649137950168e-05,-0.0008376964496871359,-0.00012801902153466708,0.3069246225894807,-0.0005155897417655234,0.48663826815683525,0.9999996214443827,-0.0006153167165201342,-0.0003711994916188021,-0.0004818197048255286,0.08084485679864883,0.08080349117517471
1780538689.841372,1.0249708852551438e-05,-0.7839417778020364,-0.0007610651907641164,-2.3565154475034453,-0.00028275284467520765,1.5708957650368696,0.7849317655181507,0.00012394234305523533,-0.7851986238680453,-0.0015915649562327314,-2.356909556019243,-0.00015806872102578344,1.5709732372861411,0.7856233335139963,0.30715268292400055,-0.0003043271895713689,0.48643340946650676,0.9999996351626121,-3.078688368633392e-05,-0.0008389611128412621,-0.00012772597967962172,0.3069251995532429,-0.0005135718105650692,0.4866398305434955,0.9999996226729774,-0.0006131785744723001,-0.0003689762005339674,-0.00048369966207020967,0.08084485679864883,0.08080349117517471
1780538689.8743973,1.2728959811851118e-05,-0.7839424842256615,-0.0007644285953345574,-2.356513120248928,-0.00028378673475753054,1.570895918189132,0.7849327110771577,0.00011982401057179593,-0.7851962727437081,-0.0015975071316748299,-2.3569149273836647,-0.00015606898810666977,1.5709728130855758,0.7856199877035236,0.3071529062857088,-0.00030487991227199707,0.48643473753038924,0.9999996363990034,-3.120987352982683e-05,-0.0008373680725741754,-0.00012839540618482528,0.3069247784713485,-0.0005163466971902476,0.4866365338252686,0.9999996181292302,-0.0006156646430484421,-0.00037304786878040867,-0.00048680241348975393,0.08084485679864883,0.08080349117517471
1780538689.9063406,1.1585725416721641e-05,-0.7839429187007396,-0.0007610787733057924,-2.356515350934546,-0.00028092769512796673,1.5708954255481324,0.7849324493618222,0.00012065271447923459,-0.7851945602464371,-0.0016007116175285028,-2.3569162713315666,-0.00015957080586639737,1.570969863837813,0.7856218186527447,0.30715244943040965,-0.0003035372466174663,0.486433775816335,0.9999996354317888,-3.0466383490552986e-05,-0.0008385117993528283,-0.000128642590065165,0.3069242469545823,-0.0005178709332613342,0.4866351126756362,0.9999996162983671,-0.0006172968314075066,-0.00037605233363198514,-0.0004861843726065806,0.08084485679864883,0.08080349117517471
1780538689.937375,1.228692126923956e-05,-0.783942919993233,-0.0007667071540256668,-2.3565116659289,-0.00028378673478228857,1.5708939323730822,0.7849331045517093,0.00012173305803020925,-0.7851945602465018,-0.001596841741589761,-2.356918057131694,-0.0001587737335160304,1.5709714251090101,0.7856238044560003,0.3071526079038065,-0.00030575834229927,0.48643538325749414,0.999999636216317,-3.243386398264912e-05,-0.0008374158654278344,-0.00012920066214335745,0.3069243484839408,-0.000516110572193345,0.4866344083914932,0.9999996172919372,-0.0006163816123856336,-0.00037616484139498375,-0.00048521393292483544,0.08084485679864883,0.08080349117517471
1780538689.969886,1.075566419450562e-05,-0.7839429186845901,-0.0007678428309908534,-2.356511252308833,-0.00028332896910593353,1.5708954647869762,0.7849297448262113,0.00012345158418358219,-0.7851982706571461,-0.001596682776511504,-2.3569187429104868,-0.0001603284239378829,1.570972930828835,0.7856246748856356,0.3071529833317882,-0.0003065027548136749,0.4864357121704598,0.9999996369651647,-3.1921799192184e-05,-0.0008364430377780634,-0.00012983238010850733,0.30692400795132635,-0.0005158584876941423,0.4866353554481272,0.9999996188414889,-0.0006159001878575047,-0.0003739005829489631,-0.000484381100772483,0.08084485679864883,0.08080349117517471
1780538690.0086796,1.1586856370228586e-05,-0.7839447177799199,-0.0007663679854825531,-2.3565143894111924,-0.0002823480489554824,1.5708964457170538,0.7849314012939673,0.00012115881228180431,-0.785194569076825,-0.0015968401177787086,-2.3569201458370665,-0.0001609676792625445,1.5709721827171723,0.7856224507971472,0.3071525106677522,-0.0003055596255697383,0.4864348704279165,0.9999996368233681,-3.1812437374765426e-05,-0.0008366215378283193,-0.000129801262612543,0.3069242377889929,-0.0005167467071180759,0.48663349108984016,0.9999996178158386,-0.0006159902348758252,-0.00037682593629418374,-0.0004841170128828602,0.08084485679864883,0.08080349117517471
1780538690.0420368,1.07544699688791e-05,-0.7839404598789544,-0.0007642347751624126,-2.3565096657142623,-0.00028395480497324306,1.5708945360803575,0.7849283665397349,0.00012487315512778934,-0.7851931356272892,-0.00160110570323893,-2.356919083310102,-0.00015561739316047966,1.570972156553257,0.7856215049242244,0.3071533700103334,-0.00030545951540692434,0.48643562515750366,0.9999996364770545,-2.9956956066517315e-05,-0.0008373436755975569,-0.0001282449738892594,0.3069245904064193,-0.0005158709784524871,0.48663354989202157,0.999999616212384,-0.0006151701424045694,-0.00037702448486817664,-0.0004882992727222341,0.08084485679864883,0.08080349117517471
1780538690.075394,1.1561720173500638e-05,-0.7839418773854168,-0.0007645808320094923,-2.356514094222315,-0.0002843098930417148,1.5708959181971085,0.7849331876101283,0.0001263741427346981,-0.7851962726952324,-0.001604687052763297,-2.356920067951052,-0.00015530974637859005,1.5709730500206196,0.7856231640586354,0.3071528735717104,-0.00030539779071563447,0.4864340913682846,0.999999635735654,-3.208520969195912e-05,-0.0008381585561145264,-0.0001281881358291812,0.3069241697208656,-0.0005165116323643331,0.4866341250102303,0.9999996152623675,-0.0006165144139294782,-0.00037550257014388577,-0.0004897200989993316,0.08084485679864883,0.08080349117517471
1780538690.105904,1.0601816601174212e-05,-0.7839413415403073,-0.0007666412418076867,-2.356515176488279,-0.0002843098692069634,1.5708944036764123,0.7849275702407711,0.00012266477092359688,-0.7851999831542692,-0.001600127250291352,-2.3569175971355887,-0.0001645880228252251,1.5709680008551,0.7856174878913363,0.3071524968525852,-0.0003063634358935347,0.48643328276747755,0.9999996343780466,-3.0485106497553184e-05,-0.0008397243854867236,-0.00012891955831426536,0.3069228517634848,-0.0005181172771795667,0.4866359867163033,0.9999996201143222,-0.0006139152848385049,-0.0003749356481332586,-0.0004834721868215764,0.08084485679864883,0.08080349117517471
1780538690.1379054,1.008590249408928e-05,-0.7839408083204593,-0.0007642614557595577,-2.35651345312995,-0.00028281421795960045,1.5708945094923945,0.7849271022255287,0.00012272962716690228,-0.7851961248898154,-0.001603221928579288,-2.3569175974906997,-0.00016032842394307672,1.5709742813523062,0.7856250781126587,0.3071528233160832,-0.0003054323656282412,0.4864339422744922,0.9999996349588289,-2.96682523198889e-05,-0.0008390760453218142,-0.00012882646579256445,0.3069247661597612,-0.0005182109098113883,0.48663535370232924,0.9999996160095532,-0.000618775537626959,-0.00037372600621892696,-0.0004866922164577988,0.08084485679864883,0.08080349117517471
1780538690.1703725,9.526422010926523e-06,-0.7839426586330162,-0.0007654000982401763,-2.356512492688587,-0.00028364937552334226,1.570894510013792,0.784934162645677,0.00012265297239539316,-0.7851962452675524,-0.0016021610279993684,-2.3569213950812387,-0.00016095014268552836,1.5709725375456245,0.7856207431761469,0.30715266265123564,-0.0003061512527821626,0.48643496367680916,0.9999996360052756,-3.388070827499431e-05,-0.000837671000264473,-0.0001288082825935909,0.30692389354295935,-0.0005180166746298,0.48663344484801335,0.9999996168734934,-0.0006162695239556198,-0.00037643546922226423,-0.00048600816775976383,0.08084485679864883,0.08080349117517471
1780538690.208822,1.0396918655882393e-05,-0.7839393449737879,-0.0007635512719421032,-2.3565119971121673,-0.00028368405809974233,1.5708944051567622,0.7849298765100149,0.00012658559938439175,-0.7851960985442694,-0.0016028715222607423,-2.356920284905365,-0.00015957129304670616,1.5709776797931496,0.7856257943833015,0.3071532134594285,-0.00030528888876507187,0.48643417099596986,0.9999996349703797,-3.064862190015739e-05,-0.0008391323154653863,-0.00012813895154287992,0.30692514288891226,-0.0005167532305967058,0.48663437565824486,0.9999996170600927,-0.0006170819953667521,-0.00037338459928665474,-0.000486945870695596,0.08084485679864883,0.08080349117517471
1780538690.242179,9.551746648487507e-06,-0.7839397599607293,-0.0007654908064400282,-2.356511004948277,-0.00028332897111041735,1.5708954643084398,0.7849272862085764,0.00012286646884028876,-0.7851962727499723,-0.0016099351530835903,-2.3569200733068794,-0.00016108165803833946,1.5709762710880397,0.7856232805241141,0.3071534998718852,-0.0003061062262097527,0.48643485918261997,0.9999996358993326,-3.0462623399369216e-05,-0.0008378987946401719,-0.00012900273423177344,0.3069248420482792,-0.0005205127344481011,0.48663440219057785,0.9999996141013787,-0.0006201808359658879,-0.0003738954630692547,-0.0004886899507376153,0.08084485679864883,0.08080349117517471
1780538690.2749002,1.3840667139779536e-05,-0.7839385302893193,-0.0007697234578388859,-2.356511927660099,-0.00028287115264945457,1.5708954647770281,0.784933512204386,0.0001221871456088949,-0.7851968398185561,-0.0016052865482089737,-2.3569240232765765,-0.00015997703855201686,1.5709734541078093,0.7856235216925536,0.30715357031603924,-0.0003060714271501487,0.4864340451117867,0.9999996346952837,-3.292866148393113e-05,-0.0008389751901179702,-0.00013072297830275987,0.30692365670816796,-0.0005189713927252179,0.4866324659949599,0.999999614203907,-0.0006189960363058019,-0.00037699466107759264,-0.0004876000723605279,0.08084485679864883,0.08080349117517471
1780538690.3068273,1.1471116250409597e-05,-0.7839385306103277,-0.0007667191691317491,-2.3565132354573923,-0.00028234366515035055,1.5708950084788649,0.7849304777426587,0.00012287524174788846,-0.7851961513794729,-0.0016053669169071615,-2.3569224365164874,-0.0001595708078708814,1.5709754798537436,0.7856203770483321,0.30715330582175765,-0.00030570885315459875,0.48643338863267216,0.9999996341039339,-3.153331924466669e-05,-0.0008398566842961514,-0.00012992791233965926,0.30692439285913087,-0.0005187025586205657,0.48663318183068477,0.9999996158076555,-0.0006171093648704417,-0.00037553195607490264,-0.00048783110221928245,0.08084485679864883,0.08080349117517471
1780538690.3369107,1.1983869402169193e-05,-0.7839398377465535,-0.0007679495057708725,-2.356514231166945,-0.00028222968819741973,1.5708908730297488,0.784935601077522,0.00012290122035257543,-0.7851982706045902,-0.0016054681584075877,-2.3569223939851613,-0.00015881919520808438,1.5709753752545212,0.7856251216292134,0.30715210628065276,-0.0003059273978068654,0.4864329574378041,0.9999996323420118,-3.4273362567918324e-05,-0.0008417689955935307,-0.0001304185590701894,0.30692405085608065,-0.0005185694677978048,0.48663384327814957,0.9999996145114732,-0.0006195041323742445,-0.00037450440318143925,-0.0004882426119820429,0.08084485679864883,0.08080349117517471
1780538690.372363,1.0999979051929058e-05,-0.7839373096070159,-0.0007654908062915513,-2.3565163469279184,-0.00028286682363249337,1.5708959181972588,0.784927544954603,0.00012261079593813034,-0.7851945602465019,-0.001609705341298905,-2.3569224735838437,-0.00015881172558551335,1.5709722415769776,0.7856181943689925,0.30715328421919463,-0.00030556249355364457,0.4864316249802269,0.9999996328062353,-2.9867184842891184e-05,-0.0008415680095122604,-0.00012923426649699325,0.3069239494940943,-0.0005200359601284025,0.4866323899665362,0.9999996136008817,-0.0006176836415791995,-0.00037796483052368704,-0.0004897452951631238,0.08084485679864883,0.08080349117517471
1780538690.4043517,1.3042850156192093e-05,-0.7839397943055895,-0.0007679878332435905,-2.3565122572070685,-0.0002823480489481505,1.5708946537937696,0.784927908776095,0.00012482054995811303,-0.7851982702775414,-0.0016060761005525029,-2.356920390774371,-0.0001595576551081631,1.570973859159221,0.7856203828235118,0.30715316338763815,-0.0003056406686808305,0.4864342071432831,0.9999996348878096,-2.9911882370723998e-05,-0.0008389129514590221,-0.00013037427268774887,0.3069239894987197,-0.0005183346185565133,0.48663465536231953,0.9999996166022119,-0.0006163900428890127,-0.00037426052060413804,-0.00048808879135130807,0.08084485679864883,0.08080349117517471
1780538690.442321,9.68282800420447e-06,-0.7839425676310071,-0.0007667204800572237,-2.3565164143564785,-0.0002823480489316523,1.5708908163412811,0.7849351430776206,0.00011919147191396285,-0.785198235331774,-0.0016064247541959838,-2.356925685937355,-0.0001583871601104393,1.5709767005913522,0.7856250369105399,0.30715139399447716,-0.00030625789136763996,0.4864327607728204,0.9999996325955374,-3.4759402891399174e-05,-0.0008415238790595933,-0.00012992690019817906,0.3069239106080833,-0.0005199269367718158,0.48663239439382455,0.9999996125308762,-0.0006216541818265872,-0.00037550442051006457,-0.0004887979818451395,0.08084485679864883,0.08080349117517471
1780538690.4756782,8.396740535978529e-06,-0.7839384949680482,-0.0007654908062420594,-2.3565142270837476,-0.0002828712074385418,1.570895007031009,0.7849308515425266,0.00012482055002590691,-0.7851951711078808,-0.0016025391181508043,-2.356925329020178,-0.0001595649606853351,1.5709755190178527,0.7856265124035852,0.3071531825974813,-0.00030636357420407565,0.486432909757411,0.9999996337205799,-3.2822395957886506e-05,-0.0008403710371757677,-0.00012923150051702604,0.3069241825324188,-0.0005171813648468037,0.4866315199115979,0.9999996148957093,-0.0006182040982714471,-0.00037745047488300075,-0.00048683274976640877,0.08084485679864883,0.08080349117517471
1780538690.5089023,1.3832128712364259e-05,-0.7839388432162628,-0.0007667202996580562,-2.3565112643699253,-0.00028430989326440125,1.5708962756437677,0.7849302287388864,0.00012290155707201517,-0.7851999802108296,-0.0016022136904166645,-2.356919710570642,-0.00015955771101098834,1.570975238586469,0.7856235040318257,0.30715377889609935,-0.0003053985141393535,0.4864345259456912,0.9999996357606562,-3.022825699951498e-05,-0.0008380818829756515,-0.00012894351144717705,0.30692410476784376,-0.0005176665785310168,0.48663562400967003,0.9999996172590268,-0.0006175449521911479,-0.0003723756864420016,-0.000486722961811468,0.08084485679864883,0.08080349117517471
1780538690.5408907,9.551475815148689e-06,-0.7839397596384104,-0.0007652083349200312,-2.356511887170949,-0.00028287120743854233,1.5708950070066119,0.7849283665639631,0.00012280997250951637,-0.7851962845165504,-0.0016079737550168459,-2.3569246230320218,-0.00015957031941200207,1.5709735215275178,0.7856207829729087,0.30715329018182375,-0.0003059176115131667,0.48643440268597005,0.9999996353076539,-3.0903009100644506e-05,-0.0008385686816144373,-0.00012913169212099907,0.30692367870608595,-0.000519569455601201,0.486632017352412,0.999999613887666,-0.0006182652380241889,-0.0003775381231042337,-0.0004887539678579921,0.08084485679864883,0.08080349117517471
1780538690.5718343,1.0194380510296145e-05,-0.78393727150583,-0.0007630321080489252,-2.356515451653149,-0.00028332897177857656,1.5708950050394024,0.7849319685857947,0.00012277283344729425,-0.7851982618106039,-0.0016043236514828862,-2.3569275914178434,-0.00015958395727629928,1.570976056137064,0.7856264329556215,0.3071532132840918,-0.0003051061890400743,0.48643195631633424,0.9999996328704132,-3.16118901143851e-05,-0.0008415964259438761,-0.00012813293109409095,0.3069235287334025,-0.0005183937626332153,0.48663144687969634,0.9999996138507694,-0.0006198176900141188,-0.00037676740987962104,-0.0004874561759733107,0.08084485679864883,0.08080349117517471
1780538690.6091063,1.0793800812184943e-05,-0.7839372217876991,-0.0007679398344147168,-2.356513242516097,-0.00028332897111041735,1.57089434845036,0.7849299221668956,0.00012276796256057332,-0.7851982613502628,-0.0016103410308505027,-2.35692670523501,-0.0001613761535915258,1.5709758761886319,0.7856203823288903,0.3071533661817698,-0.0003065218435378383,0.486432925122315,0.9999996332658367,-3.2025605198008474e-05,-0.0008408447672807429,-0.0001298672189944779,0.30692360213408804,-0.0005207326043344743,0.48663184657579867,0.9999996139371974,-0.000618921646927169,-0.00037641393831781123,-0.0004886889188694329,0.08084485679864883,0.08080349117517471
1780538690.6424632,1.1983761163530858e-05,-0.7839397507919473,-0.0007654908068359587,-2.356514222337568,-0.00028430986921062975,1.5708953018351703,0.7849274510123927,0.00012290154494632124,-0.7851959545238388,-0.0016066684514917649,-2.3569291461008754,-0.00015561787935915901,1.570976541179516,0.7856262410420054,0.3071530535304294,-0.00030556453481739336,0.48643332348855217,0.9999996345748213,-2.9327885727194072e-05,-0.0008395937220949895,-0.0001285120429422052,0.30692378586671204,-0.0005182825865544968,0.4866300472259811,0.9999996114235383,-0.0006204875284186922,-0.00037845529067952253,-0.000490267736736489,0.08084485679864883,0.08080349117517471
1780538690.67582,1.1817253600236906e-05,-0.7839381848893756,-0.0007651626021003775,-2.3565116389594714,-0.0002833283243300006,1.5708959094766959,0.7849258467961748,0.0001249267354199697,-0.7851961932706324,-0.0016082104752400297,-2.356926178247195,-0.00015957080585814865,1.5709785730307348,0.7856249378386296,0.307153754418379,-0.00030530314041789274,0.4864341152342748,0.9999996352328838,-2.849405454343743e-05,-0.0008387808148571523,-0.00012888676142358584,0.3069245573378093,-0.000518997440614552,0.4866316987393421,0.9999996138056791,-0.0006193687203303382,-0.00037583715651884304,-0.0004888355284487479,0.08084485679864883,0.08080349117517471
1780538690.706916,1.3858097480157184e-05,-0.7839366209494839,-0.0007667464588898647,-2.3565139838045037,-0.00028230859470195895,1.57089632652601,0.7849293863988649,0.0001211981040726995,-0.7851960984137166,-0.0016074098272869947,-2.356926049648496,-0.00016096784163672625,1.570973601462957,0.7856220514423141,0.3071537807294374,-0.00030497712798542207,0.48643256437729304,0.9999996335905618,-2.980388357545073e-05,-0.0008405267390541747,-0.00012995436227226836,0.30692354011468886,-0.0005201735997253879,0.4866312936593387,0.9999996132689892,-0.0006195052773748301,-0.00037830465698546103,-0.00048785605584154845,0.08084485679864883,0.08080349117517471
1780538690.7398295,1.0473320335797835e-05,-0.7839390412934337,-0.0007642614936706526,-2.3565166535370983,-0.00028044721565258267,1.5708927305435916,0.784930370082724,0.00012513715961186755,-0.7851943188798286,-0.0016046208433219194,-2.35692914508279,-0.00016032842904395444,1.570975537744522,0.7856273945015719,0.3071523082729005,-0.00030481410910656004,0.48643173317121974,0.9999996319261688,-3.110893758740205e-05,-0.0008424488801524054,-0.00013000965192068326,0.30692382697013443,-0.0005179202468951084,0.48662945738331725,0.9999996132131211,-0.0006192214788347759,-0.0003797758854313068,-0.00048718734203681416,0.08084485679864883,0.08080349117517471
1780538690.770954,1.3630464364240392e-05,-0.7839355858507722,-0.0007689296883110904,-2.356512258906484,-0.0002833289711103834,1.570895564494781,0.7849282664048314,0.00012029854935794495,-0.7851954096341303,-0.0016110522984875766,-2.356929146200009,-0.00016034596485232924,1.5709765584606863,0.7856288251786632,0.3071540005006812,-0.00030597356820787644,0.4864329932592607,0.9999996335163281,-3.0129965017945076e-05,-0.0008405629553393653,-0.0001302158857652632,0.306923869284436,-0.0005215039589554026,0.4866298787563873,0.9999996091432589,-0.0006246295609750683,-0.0003787204628315787,-0.0004894536885606929,0.08084485679864883,0.08080349117517471
1780538690.807339,1.2957075927769551e-05,-0.7839372729903107,-0.0007630321080487316,-2.3565147176381687,-0.00028332897111041735,1.5708964457170562,0.7849307491386109,0.00012906688904415224,-0.7851952755021884,-0.0016043509924777947,-2.3569291490916893,-0.00016032412031929873,1.5709773440314734,0.7856240909605843,0.3071536117208014,-0.00030425804668001127,0.48643242949120685,0.9999996338465739,-2.962106234702536e-05,-0.0008405084368171999,-0.00012813174151658302,0.30692406178164106,-0.0005166258801927672,0.4866299078727451,0.999999616073043,-0.000615509662074093,-0.0003783965628495102,-0.000487093959138193,0.08084485679864883,0.08080349117517471
1780538690.838363,1.169104501432039e-05,-0.7839366484107942,-0.0007676212860234269,-2.3565129990913474,-0.0002818059425686018,1.5708951100688995,0.7849276143732691,0.0001266120999129747,-0.7851960444358614,-0.0016047017166182635,-2.356928404508843,-0.00015957227312846976,1.5709737721674588,0.7856217260339601,0.3071536463639365,-0.00030582220395345273,0.48643293080785543,0.9999996334165866,-3.031124532222798e-05,-0.000840628471156826,-0.000130516508081357,0.3069232862090597,-0.0005173348086830796,0.4866301816693172,0.9999996153354619,-0.0006156779639980361,-0.0003794244468244025,-0.0004875956555644842,0.08084485679864883,0.08080349117517471
1780538690.875961,1.06871899405751e-05,-0.7839406581778463,-0.0007667211818239714,-2.356516579253524,-0.0002837868971449978,1.570891224627403,0.7849316669343634,0.00012489069080523184,-0.7851962727015198,-0.0016092627097106624,-2.3569298258409455,-0.000159568694913996,1.570976226399594,0.7856265676452237,0.3071517518492268,-0.00030625234887203984,0.48643213215737946,0.9999996320624381,-3.25188416131237e-05,-0.0008423571092010811,-0.0001292086625409593,0.306923582778814,-0.000519347621811918,0.4866297944794832,0.9999996117608158,-0.0006205718255489726,-0.00037879503692888586,-0.0004892095751571281,0.08084485679864883,0.08080349117517471
1780538690.9093182,9.446264509804516e-06,-0.7839377747462966,-0.0007623307984346121,-2.3565126405603434,-0.00028143252161264953,1.5708948629125432,0.7849283667041553,0.00012290153356295605,-0.7851981908558252,-0.0016111343476272351,-2.356929914524184,-0.00016032842397087815,1.5709732246882429,0.7856257899115289,0.30715346815669503,-0.00030470935081339885,0.48643342550012747,0.9999996341659869,-2.9938330133092952e-05,-0.0008400095930574627,-0.00012883453196300458,0.306922643093023,-0.0005207266119806447,0.48663007677024056,0.9999996106135043,-0.000621837698468951,-0.0003793807985046491,-0.0004894933989255436,0.08084485679864883,0.08080349117517471
1780538690.9418805,9.115684328625681e-06,-0.7839365499327642,-0.0007663919355904683,-2.356514230148995,-0.0002814325216126508,1.570895425549083,0.7849311276086077,0.000125040953696413,-0.7851951712154073,-0.0016113009497088012,-2.3569357343203152,-0.00015880003625303173,1.570972346217636,0.7856209472647406,0.3071535689397357,-0.0003061337398344295,0.4864323474496749,0.9999996329400492,-3.292058054715048e-05,-0.0008411355048510039,-0.0001302686801550433,0.3069221766440731,-0.0005197984772548188,0.48662632543934103,0.9999996104840012,-0.0006184046194098689,-0.000384238801249786,-0.0004903172213380931,0.08084485679864883,0.08080349117517471
1780538690.9733622,1.252495806873617e-05,-0.7839353126196978,-0.0007641562445300438,-2.3565132356165104,-0.00028378673478229237,1.5708948614667468,0.7849285238960706,0.0001250324016400305,-0.7851982677001648,-0.0016149051372054888,-2.356927691675684,-0.00015838716019292708,1.570975844600676,0.7856172441511494,0.30715376930548927,-0.0003048536363336154,0.48643238773630304,0.9999996329722299,-2.9122303302467018e-05,-0.0008415396453992974,-0.00012830115667092706,0.3069234681248994,-0.0005208945426931874,0.4866313788468768,0.9999996128951913,-0.000617834210249431,-0.0003769193753540331,-0.0004917977242860376,0.08084485679864883,0.08080349117517471
1780538691.0053701,9.116643096440455e-06,-0.7839396404291264,-0.0007682652390452342,-2.3565121640953097,-0.00028143259379859355,1.5708941769254565,0.7849298903159839,0.00012662474478961026,-0.7851999741785965,-0.0016095408012451013,-2.3569301657959296,-0.00016021990442680005,1.57097781693788,0.7856235216925618,0.3071530974209931,-0.00030674436789357033,0.4864341620212686,0.9999996344938752,-3.296432039450631e-05,-0.0008391814029631199,-0.00013093092561465444,0.3069233059125837,-0.0005190432937348023,0.4866309095213306,0.9999996142262398,-0.0006182793175872692,-0.00037631883988638526,-0.0004889836894922633,0.08084485679864883,0.08080349117517471
1780538691.0379095,1.18953500655617e-05,-0.783936062215532,-0.0007695607926716844,-2.3565096780384835,-0.00028332897111041735,1.5708927024523607,0.7849274554276235,0.00012522396857141173,-0.7851999830451027,-0.0016106961180823419,-2.3569280982303833,-0.00015864738349879065,1.5709753956416126,0.7856206657080512,0.3071536563845507,-0.0003067126100540393,0.48643410674093085,0.9999996335484086,-3.0815617482131204e-05,-0.0008404651748842406,-0.00013044002642865796,0.3069230594678086,-0.0005195193137494974,0.4866316755556017,0.999999613773419,-0.0006179606206593859,-0.00037649002399904466,-0.0004901793625443604,0.08084485679864883,0.08080349117517471
1780538691.0761023,1.3753351200926138e-05,-0.7839382083104184,-0.0007682225980313941,-2.35651446729274,-0.0002833289711101118,1.5708950070133554,0.7849275741543404,0.00012298061125326992,-0.7851921729718999,-0.001609383852413629,-2.3569347701013266,-0.0001599730730687903,1.570977161686306,0.7856262368993958,0.30715319665338575,-0.0003057046372964853,0.48643270770952285,0.9999996335080608,-2.9471584425235565e-05,-0.0008406346437518853,-0.0001299670349677152,0.30692377384773095,-0.0005200553016307991,0.486626283930949,0.9999996097784362,-0.0006214038286227215,-0.00038284892913836133,-0.0004890499112910309,0.08084485679864883,0.08080349117517471
1780538691.109459,1.0687251838497973e-05,-0.7839353119655668,-0.000764261457161888,-2.356516359526995,-0.0002818902852845585,1.570896327979552,0.7849303288746149,0.00012592661075557554,-0.7851962697518006,-0.001613510447371731,-2.3569340314322327,-0.00016112988009460083,1.570976230777559,0.7856277762999533,0.30715367565466456,-0.00030505256876995913,0.48643104168748175,0.9999996320917991,-3.098121077971057e-05,-0.0008423681924679743,-0.00012928698357393779,0.30692304316203034,-0.0005207387232573485,0.486627806428257,0.9999996096229201,-0.0006221579253981755,-0.0003808983592163301,-0.0004899314484988204,0.08084485679864883,0.08080349117517471
1780538691.1428158,1.1575070470151826e-05,-0.7839372562433354,-0.0007669573040734083,-2.3565144626515067,-0.000283786737454928,1.5708953729728996,0.7849289816780614,0.00012767284946948275,-0.7851958069863049,-0.0016096235148176437,-2.356936504761045,-0.00016139368970690874,1.5709776948397416,0.7856256179375213,0.30715341993584677,-0.0003060577766169197,0.48643244979636346,0.999999633310579,-3.0816731139790724e-05,-0.0008409254802620095,-0.0001292912912351682,0.30692310721935545,-0.0005189911438202198,0.48662662677831237,0.9999996121434975,-0.0006188312267537005,-0.0003816339714369099,-0.0004884251635118333,0.08084485679864883,0.08080349117517471
1780538691.174364,1.2602784289982336e-05,-0.7839336828488642,-0.000765492109141389,-2.3565130019986213,-0.0002823480489563995,1.5708914167621968,0.7849298726008319,0.0001212008504198697,-0.7851980319154874,-0.0016057612537631089,-2.356930206635528,-0.00015992443193905563,1.57097691135238,0.7856272698099814,0.3071533240603026,-0.0003049619366683624,0.486431695286765,0.9999996307461907,-3.0230942658846645e-05,-0.0008439597652715232,-0.0001294926703091515,0.30692340705152116,-0.0005194145840018996,0.4866302161164368,0.9999996122477883,-0.0006215296102583363,-0.00037776237519429763,-0.00048779469610857096,0.0808442011475563,0.08080349117517471
1780538691.2063427,1.1616067501504612e-05,-0.7839353204686695,-0.0007690296428174537,-2.3565129979614534,-0.00028332897111041735,1.5708944704617278,0.7849298706445956,0.00012574225946008615,-0.7851998352883325,-0.0016114092312276757,-2.3569337328516333,-0.00016028458588577814,1.5709761915325118,0.7856265387478673,0.30715371509428147,-0.0003066244795820186,0.4864324670085456,0.9999996325718992,-3.197443744785595e-05,-0.0008416121600981016,-0.0001302518282435879,0.3069225262796218,-0.0005199334000088952,0.4866290392946088,0.999999611295232,-0.0006208880177609515,-0.0003789852188289761,-0.000489612621650014,0.0808442011475563,0.08080349117517471
1780538691.238931,1.0688602870359859e-05,-0.7839365409875982,-0.0007667206284422413,-2.3565151027039652,-0.0002847676569363102,1.5708927436442588,0.784930029566164,0.00012325619463896968,-0.7851979262625247,-0.0016057612537631312,-2.3569344831474672,-0.00016139368881602334,1.5709756789138687,0.785618675159178,0.3071528933539346,-0.000306458754138971,0.4864316975534293,0.9999996316793538,-3.1699463381721567e-05,-0.0008429180605829353,-0.0001287179403302074,0.30692261585891056,-0.0005190896411166388,0.4866280561147982,0.9999996148375581,-0.0006162025435525571,-0.00038056837162897533,-0.0004870623541347693,0.0808442011475563,0.08080349117517471
1780538691.2718384,1.0676907371586698e-05,-0.7839365409754827,-0.0007620407942850776,-2.356513194904483,-0.00028143202761865365,1.570893488173959,0.7849272854878327,0.00012662117419577734,-0.7851945559948008,-0.001609632427460216,-2.3569358206564863,-0.00016031527252798503,1.5709769512502463,0.785628170218912,0.30715329708540506,-0.00030423639054965907,0.48643266446977024,0.9999996328863106,-2.867968329607761e-05,-0.0008415910377968368,-0.00012873270551789592,0.30692323037522545,-0.000519090158241874,0.4866265006992103,0.9999996105093726,-0.0006206370045823093,-0.000382289366081058,-0.0004889667814060993,0.0808442011475563,0.08080349117517471
1780538691.3096,9.721952658083978e-06,-0.7839365406563122,-0.0007683579067714716,-2.3565141092497024,-0.0002818902852845245,1.5708908725452322,0.7849279090122664,0.0001270693182119082,-0.785194533701264,-0.0016110907616577268,-2.356935574396319,-0.00015955765443983203,1.5709781036055734,0.7856273053131837,0.30715262701108237,-0.00030668385117005434,0.4864320021594757,0.9999996310480466,-3.170316942774098e-05,-0.0008433560765874158,-0.00013073665362309906,0.30692350781397354,-0.0005192686805443766,0.4866267109227916,0.999999610421726,-0.0006204965676260001,-0.0003816010881306411,-0.000489861078866919,0.0808442011475563,0.08080349117517471
1780538691.3423564,9.130170504857912e-06,-0.7839365396794028,-0.0007642614571456926,-2.356515100633349,-0.00028090936312775695,1.570895004931732,0.7849303681204723,0.00012801326736115528,-0.7851955545444482,-0.0016114063099936056,-2.356935654193142,-0.00016102759128679568,1.570980077442061,0.7856221650701657,0.30715337041550933,-0.0003053246851756316,0.4864318970659065,0.9999996324933084,-3.1779929291374255e-05,-0.0008417860697610182,-0.00012977812462093235,0.3069237562375255,-0.0005193915357090659,0.48662715952386354,0.999999613096109,-0.0006175658092970976,-0.00038014293708269864,-0.0004892385022048335,0.0808442011475563,0.08080349117517471
1780538691.3743184,1.087765290038589e-05,-0.7839374574057132,-0.0007643004233639484,-2.3565129515853873,-0.0002843098992778683,1.5708954645616129,0.7849280324005434,0.00012522791916235818,-0.7851951712155485,-0.0016076491193135448,-2.3569355835536685,-0.0001610860400296313,1.5709776991292972,0.7856272697175043,0.30715360317703655,-0.0003055168372293067,0.48643323337503624,0.9999996342552329,-2.9750928203126483e-05,-0.0008400236790858042,-0.00012809123955401618,0.3069233235058296,-0.0005190344072073874,0.4866268677816244,0.9999996116278619,-0.0006201821938961054,-0.0003814886748239998,-0.0004878805425968374,0.08084485679864883,0.08080349117517471
1780538691.4053442,1.1029084349285486e-05,-0.7839365409875981,-0.000765491132320667,-2.3565141490933232,-0.00028476765693631026,1.570890751036184,0.7849293474618877,0.00012396539134802308,-0.7851957981680628,-0.0016096236236605131,-2.3569358739349413,-0.00016324005152234324,1.5709777776923517,0.785617190320447,0.30715259694442293,-0.00030595359522708423,0.4864319732759305,0.9999996313266287,-3.075327866093422e-05,-0.0008434375748031667,-0.00012828392022084075,0.3069232046451167,-0.0005205179741388399,0.48662692879411273,0.9999996141861888,-0.0006164708946628693,-0.00038127894462199134,-0.00048750419187802767,0.08084485679864883,0.08080349117517471
1780538691.4408174,1.1233514728409264e-05,-0.7839340734088408,-0.0007655964840700494,-2.3565132390071755,-0.00028430989059179015,1.5708954647889208,0.7849302289083934,0.0001260592403212438,-0.7851954096807875,-0.0016124644005658048,-2.3569358896747343,-0.00015729842759313613,1.5709769103893365,0.7856242614861909,0.3071540852698919,-0.00030582974404209717,0.4864320580436342,0.9999996326108971,-3.1129920104397654e-05,-0.0008418593979184004,-0.00012854811404499925,0.30692308111914907,-0.0005195502080956584,0.4866267260460322,0.9999996098377195,-0.000619965287037329,-0.0003819160319869479,-0.0004914778301299111,0.08084485679864883,0.08080349117517471
1780538691.4718277,1.3870914774224571e-05,-0.7839330863983799,-0.0007657658434118066,-2.3565109775759625,-0.00028378675282259057,1.570895464794976,0.7849293474861135,0.0001250925991634092,-0.7851991089351665,-0.0016084947131104839,-2.3569373663138604,-0.0001603284239461319,1.570975396445197,0.785627309399426,0.3071545286577442,-0.0003049655055332413,0.4864328222485642,0.9999996331573977,-2.943120032163523e-05,-0.0008412221623934546,-0.00012886819888596523,0.3069220049392277,-0.0005191901417388343,0.48662703224197695,0.9999996110291273,-0.0006205667140196836,-0.0003815624427880066,-0.0004885606522852112,0.08084485679864883,0.08080349117517471
1780538691.509741,9.372587236323815e-06,-0.7839353116385007,-0.0007664377219504068,-2.3565142314552405,-0.0002833291334721949,1.570894012642353,0.7849314344023646,0.00012738215378054843,-0.7851979174443615,-0.0016156170543038305,-2.3569358033623335,-0.0001556174472815873,1.5709756832805,0.7856189815309732,0.30715346113734876,-0.00030646858817617563,0.48643184253837596,0.9999996319428375,-3.296082095996896e-05,-0.0008424622670297872,-0.0001293366427007958,0.3069224486002971,-0.0005198170184238213,0.48662742779999935,0.9999996104887896,-0.0006177778645489185,-0.0003812315241340893,-0.0004934350670243355,0.08084485679864883,0.08080349117517471
1780538691.5423608,9.454590665792188e-06,-0.7839331570046327,-0.0007630421743444565,-2.356513865160967,-0.0002828712074385424,1.5708949939493522,0.7849304203454937,0.0001297287945958888,-0.7851981911828722,-0.00161140728329211,-2.356940226017847,-0.00015921555520499698,1.5709767947566562,0.785623383276229,0.3071540463010949,-0.00030524089265928473,0.4864314403942321,0.9999996317840666,-3.1212030727591775e-05,-0.0008428657140697138,-0.00012836585579962102,0.30692207485781653,-0.000518480114792074,0.486625522356693,0.9999996118108136,-0.0006173150682095839,-0.0003827522348394949,-0.0004901468313870885,0.08084485679864883,0.08080349117517471
1780538691.5743225,1.1661468749646702e-05,-0.7839340819623338,-0.0007621196968223396,-2.3565139800253396,-0.00028287122547503976,1.5708922810354085,0.7849303283849391,0.00012777961577640324,-0.7851960983504627,-0.0016075440523737432,-2.3569383187136315,-0.00016108604203380957,1.5709770439676658,0.7856223912301967,0.30715331926830375,-0.0003042620656488483,0.486431432710741,0.9999996310683542,-2.9736007997407283e-05,-0.0008438172879324094,-0.0001280397360763249,0.3069226935410641,-0.0005182150153752586,0.48662580351868245,0.9999996134957155,-0.0006164286896839185,-0.00038271969068334077,-0.00048784484198847067,0.08084485679864883,0.08080349117517471
1780538691.6063483,1.0675451532120205e-05,-0.7839340730068713,-0.0007664010635588404,-2.3565132223557175,-0.00028378689714590304,1.5708950068697907,0.7849283665397364,0.00012703141309034776,-0.7851962722672493,-0.0016096353501072107,-2.3569399974498824,-0.00016139368859421823,1.5709737852562327,0.7856265515047597,0.27261755481594707,0.006343668713431007,0.48796621652647987,0.9988225522397979,-0.0031834635525449665,-0.046099882177635186,-0.0147707670821118,0.30692176434521157,-0.0005191883816267039,0.4866247772117776,0.9999996103220815,-0.0006196207083467825,-0.00038510253849680174,-0.0004884309153497025,0.08084485679864883,0.08080349117517471
1780538691.6398468,2.7196410214833366e-05,-0.783963026809966,-0.0007658074348996079,-2.3565425852227593,-0.0002800197286317461,1.5701533236165,0.7849346596629706,0.00012596373785541464,-0.7851923786721507,-0.0016103847878166904,-2.3569400003426395,-0.00016032842394216024,1.5709754000023375,0.7856273078206342,0.3072762845755023,-0.00038622244979811296,0.4861007368704007,0.9999995566025706,1.9342843791415735e-05,-0.0009295284238598606,0.00014965769411373392,0.3069227013837378,-0.0005195364402141271,0.48662372257408293,0.9999996087621302,-0.0006207992673835456,-0.0003862431923775156,-0.0004892268526748515,0.08084485679864883,0.08080349117517471
1780538691.6765256,5.8204274375132464e-05,-0.7840388985379135,-0.0007672776978780707,-2.356627021425125,-0.00027949633486705114,1.568905069035627,0.7849336646854704,0.0001243721790086325,-0.7851981907480883,-0.0016156293392686745,-2.356940236091806,-0.00015636916617097,1.5709769510887435,0.7856203829345436,0.3078107702676586,-0.0005043773906674943,0.4872265408125863,0.9999998390197145,-0.0003271565068672076,0.0004369909567634859,-0.00015481624191564136,0.3070182689649069,-0.00033479312101174696,0.48667874454878945,0.99999989248665,-0.00012774355436518563,-0.00040424110358082063,-0.00018787603079127764,0.08084485679864883,0.08080349117517471
1780538691.7098827,8.250997299586295e-05,-0.7840436620611116,-0.0007666938521088201,-2.3566301492291264,-0.00028280596064615335,1.568604522221573,0.784931473979382,0.00020699638431831443,-0.7850969529949902,-0.001630038727994681,-2.3574128461109654,-0.00013183481523551668,1.5709836384963138,0.7856246465907019,0.307826842438425,-0.0002290985542853738,0.48849598021251367,0.9999983808346388,-0.0004898309247284362,0.001592205562992025,0.0006806432334010231,0.30752620222966714,0.00021177092968338335,0.4869735985296306,0.9999990654398256,0.0012285316162530347,-0.0005733236377760781,0.0001764356800807755,0.08084485679864883,0.08080349117517471
1780538691.7432399,8.726928140005863e-05,-0.7840344309437421,-0.0007707930642341091,-2.356616694470502,-0.000281857262793134,1.568606207922022,0.784929962613274,0.00038754068492459286,-0.7847480249647956,-0.0016203273328382784,-2.358668986585705,-0.00010336493472719268,1.571012707392176,0.785628144258416,0.3079521777536285,-0.00019188510003538464,0.49032783289890053,0.9999915879779087,-0.000889889388323324,0.003011714522363868,0.002638493117780619,0.30826602119071095,0.000694430596159378,0.48746943078412247,0.9999962281420933,0.0025639527241959246,-0.0009425991341573727,0.0002852277807720245,0.08084485679864883,0.08080349117517471
1780538691.7743607,8.505198108111164e-05,-0.7840583978385577,-0.0007726724151337715,-2.3566213695860068,-0.0002814131379372354,1.5686115180942668,0.7849270581442843,0.0004858834075195604,-0.784506959788274,-0.0016229942735219102,-2.359707857698483,-0.00010360770441248394,1.5716288762967792,0.7856268955842853,0.307898931288186,0.0003111677827477478,0.49222316122085275,0.9999777583437325,-0.0018670991105966886,0.003934878405587511,0.0050510880697029,0.3095841471402856,0.001007426093584916,0.48892086361087395,0.9999924332898593,0.00383747543134092,0.00016997202321111346,0.0006150242691619816,0.08084485679864883,0.08080349117517471
1780538691.806319,8.934094274936484e-05,-0.7841220502392056,-0.0007755895409537951,-2.356528511425138,-0.00028287098884802577,1.5686356010228473,0.7849303166292769,0.000585104762216416,-0.7843200896738236,-0.0016208250640781967,-2.360182265761656,-0.0001033585044394422,1.572095272642512,0.7856236937782659,0.3076629584815815,0.0006435563103209879,0.4933989256040891,0.9999699994411587,-0.00216858529408614,0.004106465056989095,0.006199548387317422,0.3107327703130522,0.0011584130797037588,0.4905430754680278,0.9999852097573046,0.00491317122343968,0.001616393881384148,0.0016817508700164932,0.08084485679864883,0.08080349117517471
1780538691.8398077,8.931453163072883e-05,-0.7841709392211345,-0.000773596792176737,-2.3560436204417172,-0.0002863104987878976,1.5690362926635921,0.7849339540098705,0.0007342845737407249,-0.7842910823497689,-0.0016209150864871181,-2.360132428731731,-9.946859297654869e-05,1.572490635790195,0.7856296847945903,0.3073898191410515,0.001188214287676319,0.4957108160347841,0.9999576779695226,-0.0019870115686536362,0.004402998241113945,0.007829920900962382,0.31255666869945964,0.000560760900415764,0.49154730205256914,0.9999833689924175,0.004703661359765116,0.0028416026287688533,0.0017500293961258972,0.08084485679864883,0.08080349117517471
1780538691.8766685,9.218079351908725e-05,-0.7843049627849211,-0.0007634334795259852,-2.3551958909497355,-0.0002989631266795397,1.5691218433817031,0.7849350850253636,0.001032101810463822,-0.7842990264728804,-0.0016098635146669011,-2.3598718049605156,-0.00010424256274161138,1.5735108182232072,0.7856236625175876,0.308086887211258,0.0015991576980897751,0.49739813035989006,0.999950184732773,-0.002475327106240929,0.005528937653394898,0.007932947562855308,0.31382914435099013,0.000439962463704153,0.49306512360903354,0.999976461754276,0.0052880270132799854,0.00422252276940556,0.0011326999459780921,0.08084485679864883,0.08080349117517471
1780538691.9100254,9.754638422593619e-05,-0.7845866026859246,-0.0007642413699688277,-2.354063681391296,-0.0003100899537877764,1.5691404994729865,0.7849316850395915,0.0012887039654750083,-0.7843114842243282,-0.0016062363697497055,-2.3592855536486406,-0.00010706870388812111,1.5746032037621684,0.7856248174123187,0.3082088734830719,0.0022592406946889978,0.49906018894737675,0.9999446531274491,-0.00284280732625735,0.006598687390348064,0.007685470255992276,0.31406302266947356,0.0007347872773756995,0.4956565525066092,0.9999542869808408,0.007480971836267724,0.005669884493953939,0.0018197304328948535,0.08084485679864883,0.08080349117517471
1780538691.9433687,0.00013540736626135763,-0.7850362687026048,-0.0007285590955103431,-2.3526525819777597,-0.0003144850446925845,1.569142911957696,0.7849323803809706,0.0015611351841501673,-0.7842800740577708,-0.001597258714343332,-2.358129670335193,-0.00011448739241835969,1.5755290908165116,0.78560487479355,0.3084520553364344,0.0026744209128162066,0.5001266920274076,0.9999382386277681,-0.0025779553099168763,0.0074574731251159975,0.007826823813345603,0.3150726605458826,0.0010154811591043416,0.4973247911843174,0.9999383703707051,0.008587872071096448,0.006733677818104887,0.002039974683963765,0.08084485679864883,0.08080349117517471
1780538691.975363,0.00021025039890690215,-0.7854568225014378,-0.0006761410505273923,-2.350918847932276,-0.00031577328777182746,1.5691400935498534,0.7849354898060076,0.0018741455935818458,-0.7842956882336308,-0.0015948726940842462,-2.3564847385987173,-0.00011789968012578308,1.5763303388514192,0.7854545692557193,0.3085023146261983,0.0032024912049108253,0.5005168539380515,0.9999386731792038,-0.0017520523853405987,0.008042755699330011,0.007409067000184037,0.31606356590105955,0.0015846771690853152,0.498754146175156,0.9999232680992691,0.009520446862180416,0.007712251761978182,0.00182761538111059,0.08084485679864883,0.08080349117517471
1780538692.0068698,0.00037071835981639404,-0.7857499611981034,-0.0005899463050587187,-2.3488409491876454,-0.00031589355170797475,1.5691328524511752,0.7849338710808009,0.0021421037503839865,-0.7842949700425375,-0.001594231485353299,-2.354573415800466,-0.00012493419347604933,1.5769255791539945,0.7851692480071806,0.3086693821807372,0.0034922882817519,0.5009526562781266,0.9999372019265044,-0.0008302343491944258,0.00833234591654742,0.0074481491557343345,0.3169286395753914,0.0020006327299063875,0.49974496193799284,0.9999056492619238,0.010663193698447192,0.008551345204333212,0.0013650529060750677,0.08084485679864883,0.08080349117517471
1780538692.0389183,0.0006550329380931574,-0.785913386257093,-0.0004560550276329845,-2.3464588992940745,-0.000316912026942187,1.569103146019624,0.7849376641432764,0.0024620495256233274,-0.7842959500014212,-0.0015904387693681584,-2.3523190989481706,-0.0001198131552717802,1.5776192950125627,0.7847041465373512,0.3085568006921451,0.003858071009382128,0.5012886931615362,0.9999327912113156,-0.0007370801815331041,0.008282348598338032,0.008079138249162543,0.317643248053575,0.0024149318860828433,0.5004006674049435,0.9998900415284218,0.011801904344730623,0.008747127362244244,0.002026738522225099,0.08084485679864883,0.08080349117517471
1780538692.0718362,0.001098683837521404,-0.7859214705881258,-0.00016694172577783024,-2.343305094637911,-0.0003159238026922257,1.5688280148639904,0.7849381568292951,0.002804113695882648,-0.7842890311177616,-0.0015422136633949624,-2.350026186198313,-0.00012032391659364183,1.5783363547432543,0.78414124390292,0.3086328363535696,0.004729066425997627,0.5019414831389138,0.9999309666225191,9.021478774388621e-05,0.00896358577053953,0.007596576912040856,0.3191704062415512,0.0028413985360974197,0.5007794857721868,0.9998934895906985,0.012050207386621459,0.008042758393794421,0.001765223355369156,0.08084485679864883,0.08080349117517471
1780538692.1101682,0.0013835285508534412,-0.7859347014176339,0.000236819941387311,-2.3413481954144104,-0.00031684365972100377,1.5687791791238168,0.7849373471051632,0.0032653838006161456,-0.7842241195103692,-0.0013209399011609164,-2.3470519319677003,-0.00012352847756338443,1.5792743384531414,0.783425410699842,0.30840208731461155,0.005363866909191443,0.501999973625142,0.9999277647694562,0.0005735431223766898,0.009197389924114428,0.007716495968362782,0.31980143009642703,0.0023099427247171914,0.5002288390173721,0.9998967451283409,0.01166932389756451,0.008141652328096712,0.002009840513996503,0.08084485679864883,0.08080349117517471
1780538692.1435254,0.001609457697378053,-0.786020883607923,0.0007021019045139052,-2.3400709161429583,-0.0003150295554450792,1.568774429500221,0.7849355765890182,0.0037230760555197057,-0.7839344401514241,-0.0010973257801888286,-2.34460137104963,-0.00011870023366865363,1.5797970873268954,0.7827567871614274,0.30854607952404245,0.005317158743600465,0.5025485869923809,0.9999246671634414,0.000987387345419854,0.009777246019020034,0.007354626067630166,0.32157227303215175,0.0015991773578510932,0.49992545699294244,0.999906807263494,0.010665938137380879,0.008039319961690012,0.0028255771673515347,0.08084485679864883,0.08080349117517471
1780538692.1758916,0.0018295131940876345,-0.7861730104891027,0.0012407297420521455,-2.3390796655267434,-0.00031686697911487995,1.5687778870605285,0.7849390924239442,0.004113258301818469,-0.7833805818198758,-0.0009318729771016753,-2.3423752599524,-0.00012040643402900084,1.5803978549608533,0.7820909562340778,0.3084522133307384,0.005314183774651488,0.5024274400454607,0.9999294164858663,0.001641730062329117,0.009773069008121079,0.006553921787740592,0.32273670511494,0.0008602109346263312,0.49945597936781816,0.9999154783612073,0.009959480612200063,0.007910914917588295,0.0026948663751414025,0.08084485679864883,0.08080349117517471
1780538692.207862,0.0020626257430555344,-0.7863454127514123,0.0018504714667450602,-2.3380441810162407,-0.0003159038720154588,1.5687788092308212,0.7849362793656112,0.004369332696005192,-0.7825692965092655,-0.0008415407635931634,-2.340544637228377,-0.00012256862497022939,1.5815028775785889,0.7813549761881775,0.3082767232322963,0.005436874063550002,0.5018284300951897,0.999934869924853,0.002106469395016039,0.00917959516703514,0.0064462180869610695,0.3241782473745339,1.0594046409748712e-05,0.49970128400630953,0.9999169118275846,0.00941520998573553,0.008304139634193257,0.0029265213217545528,0.08084485679864883,0.08080349117517471
1780538692.2403612,0.0022837783975611504,-0.786510543329076,0.002494818226396516,-2.3370401920001282,-0.00031784818658491676,1.5687774014045657,0.7849381423552658,0.004510621384888114,-0.7815054770625063,-0.0008343790639587372,-2.3391661144516536,-0.0001407607743399044,1.5831803841746996,0.7807962069626485,0.30842040728358255,0.005320107425388143,0.50066126386671,0.9999446702255312,0.0022914867517009945,0.008449751236469885,0.005831576121601559,0.3253259589297174,-0.00045020246029088903,0.4996739209079749,0.9999111803119207,0.0093938866857409,0.00894603125168743,0.0030585789184697956,0.08084485679864883,0.08080349117517471
1780538692.2723372,0.002453845902551108,-0.7866968663622673,0.0032069206147997444,-2.336198055695568,-0.0003131978377033137,1.5687745731507583,0.7849376540990937,0.004525968853326036,-0.7801326805160004,-0.0008404242957997466,-2.338042079857157,-0.00017015942408272745,1.5854201462354482,0.7802930143463959,0.3086870904303388,0.005052781179275407,0.4998878331239405,0.9999452650655556,0.0027437771758653125,0.008139213992764354,0.005974257724978319,0.32624079195617356,-0.000685230231216615,0.4994638912712026,0.9999146707796079,0.009002682242482617,0.009014220404857812,0.0028890660500980984,0.08084485679864883,0.08080349117517471
1780538692.3058362,0.002622416793983403,-0.7869330729467332,0.0041387986884308175,-2.3354581482804635,-0.00031745145340771616,1.5687736532006944,0.7849335525310567,0.004526484691273299,-0.7784257510837619,-0.000863101538832734,-2.336950524879909,-0.0002465752115176821,1.5878649673846272,0.779780997048777,0.3089163048673791,0.00468695806545736,0.49867922931987346,0.9999485670661418,0.0030367634905805606,0.007881091223906,0.005615130541005488,0.3277153806386265,-0.00044006324130820023,0.4990330274739098,0.9999166870297646,0.009202098914983551,0.008656856717264532,0.0026456013976581725,0.08084485679864883,0.08080349117517471
1780538692.343668,0.002711619159028242,-0.787057147351771,0.004728550340863741,-2.3351838107005625,-0.00031260358840944427,1.5687722145148686,0.7849358614628632,0.004525673446133527,-0.7758647387350778,-0.0009175084488174629,-2.335522637273894,-0.0005519842652518147,1.591417899309064,0.7793071838025653,0.3089163048673791,0.00468695806545736,0.49867922931987346,0.9999485670661418,0.0030367634905805606,0.007881091223906,0.005615130541005488,0.32891600313996355,-0.00016832520091783026,0.49855690560236315,0.9999129452316216,0.009680551340579114,0.008617673053296757,0.002474791933308613,0.08084485679864883,0.08080349117517471
1780538692.3770251,0.0027436619851400655,-0.7870661854700066,0.005182291489312526,-2.3351098609479375,-0.00031307349347693193,1.5687754918668253,0.7849379232834588,0.004525064044310604,-0.7737213654061059,-0.0010180671008204083,-2.334508430369069,-0.000734399916157831,1.5943571287713905,0.7789983212581021,0.3089163048673791,0.00468695806545736,0.49867922931987346,0.9999485670661418,0.0030367634905805606,0.007881091223906,0.005615130541005488,0.33039285594901197,-0.0004822121082123965,0.49832571194408626,0.9999210784288243,0.009011541014988179,0.008395104079348127,0.0024801753505036468,0.0808442011475563,0.08080349117517471
1780538692.410382,0.0027628340710493604,-0.7870376686772041,0.005538093937307623,-2.3351169435092674,-0.0003141549026779196,1.5687750999011347,0.7849345867293276,0.004515517792529924,-0.7713645846367244,-0.0011216617591044374,-2.3334255430890707,-0.0008223244163485301,1.5968201637980814,0.7786991236177143,0.3089163048673791,0.00468695806545736,0.49867922931987346,0.9999485670661418,0.0030367634905805606,0.007881091223906,0.005615130541005488,0.33197248997612155,-0.0006746672037528928,0.4982671055573681,0.9999225412586985,0.008389608634444034,0.008831802514867143,0.002554449851858378,0.0808442011475563,0.08080349117517471
1780538692.4433663,0.0027868190311290363,-0.7870409077929185,0.005782149062755393,-2.3351133860752515,-0.00031315637294031576,1.5687741070782746,0.7849354163140722,0.004512746897913602,-0.7686293228204718,-0.001230606102327548,-2.3320464770750724,-0.001031267686909346,1.5991548523604502,0.7784950892402849,0.3089163048673791,0.00468695806545736,0.49867922931987346,0.9999485670661418,0.0030367634905805606,0.007881091223906,0.005615130541005488,0.3333230827520921,-0.0008639425809450106,0.4983872153257419,0.9999197323350127,0.008430394185359947,0.009237818919350589,0.002029788799112454,0.0808442011475563,0.08080349117517471
1780538692.4752734,0.002824952577442784,-0.7870377284386031,0.005927023065090745,-2.335118504787408,-0.00031254894387910606,1.5687728529109235,0.7849354015928257,0.004511322148518054,-0.765528091521864,-0.0013700396545040382,-2.330293713582972,-0.0012021688084348588,1.601168473848345,0.7783343662650458,0.3089163048673791,0.00468695806545736,0.49867922931987346,0.9999485670661418,0.0030367634905805606,0.007881091223906,0.005615130541005488,0.3367779473818743,-0.001542678701758832,0.49984115361544595,0.9998964029091056,0.008281925927130436,0.011672621001315274,0.0015307094199800437,0.0808442011475563,0.08080349117517471
1780538692.5059085,0.0028710465474097915,-0.7870250551429642,0.0059895866831390695,-2.335118141564842,-0.0003125488717175489,1.568777081145046,0.7849306785207776,0.004513623653537131,-0.7622314605253816,-0.0015476505217517174,-2.328378763119884,-0.0013216392503477602,1.6031339920823662,0.7782224106516047,0.3089163048673791,0.00468695806545736,0.49867922931987346,0.9999485670661418,0.0030367634905805606,0.007881091223906,0.005615130541005488,0.3382906280733863,-0.0020577829271859853,0.5005791853113063,0.9998797231037806,0.008325563844923093,0.013022310272681586,0.0012820872564555583,0.0808442011475563,0.08080349117517471
1780538692.5438106,0.002934533950782922,-0.7870060987280064,0.0060319510656540055,-2.3351222819415027,-0.00031718286506356635,1.5687780518906076,0.7849330533357223,0.004506535852609204,-0.7573041525784137,-0.0019137979938946028,-2.3255498605439313,-0.0014991448327321285,1.6066239606882409,0.7780662841453733,0.3089163048673791,0.00468695806545736,0.49867922931987346,0.9999485670661418,0.0030367634905805606,0.007881091223906,0.005615130541005488,0.341470512833514,-0.002663201366048323,0.5018718883531142,0.9998390249116496,0.008927014409392945,0.015517538391992505,0.0011994497526722529,0.0808442011475563,0.08080349117517471
1780538692.5771677,0.0029774149620040167,-0.7869943439626836,0.006072855427220604,-2.3351285996888094,-0.0003192295391852894,1.5687780356116323,0.7849340353650877,0.004507988961504025,-0.7532399078060431,-0.0022716028815145182,-2.3231549537915583,-0.0016587795842270539,1.609490304542982,0.7779151452762442,0.3089163048673791,0.00468695806545736,0.49867922931987346,0.9999485670661418,0.0030367634905805606,0.007881091223906,0.005615130541005488,0.344510251463566,-0.0035528625918443144,0.503208578749941,0.9997954926888102,0.009097006280533799,0.01805168306051984,0.0005949912214146143,0.08084485679864883,0.08080349117517471
1780538692.610525,0.0030191949844385105,-0.786993270326971,0.00611710101227557,-2.335126199886935,-0.00031398755754344165,1.568778521748522,0.7849340469367053,0.004502676970058436,-0.7490733125808572,-0.002725465475002611,-2.3206090731054716,-0.0018267188657807732,1.6130163857164745,0.7777405361811122,0.3089163048673791,0.00468695806545736,0.49867922931987346,0.9999485670661418,0.0030367634905805606,0.007881091223906,0.005615130541005488,0.3478399054630427,-0.004423154978807556,0.5046356371239414,0.9997413139979034,0.009021674462678759,0.02079569256985566,0.0018583988202599655,0.08084485679864883,0.08080349117517471
1780538692.6438792,0.0030618200312562717,-0.786982317440001,0.0061610415409416525,-2.335128796000352,-0.00031451071602558496,1.568775156023715,0.7849336805426309,0.004493722447333498,-0.7445957525258914,-0.0032925261352152583,-2.3173189112541666,-0.0020733204253940503,1.6162598640760288,0.7774478166907444,0.3089163048673791,0.00468695806545736,0.49867922931987346,0.9999485670661418,0.0030367634905805606,0.007881091223906,0.005615130541005488,0.35178160275022735,-0.00548581120375906,0.5058190125260904,0.9997001265024498,0.008470015161284176,0.02285348149009304,0.0023736676127421707,0.08084485679864883,0.08080349117517471
1780538692.675264,0.0030891882513610952,-0.7869486324251184,0.006196727770555277,-2.3351354078661184,-0.00031542624307238524,1.5687769758915886,0.7849356249383542,0.004485276368163136,-0.7400076302569651,-0.003959703535679441,-2.3136393592358417,-0.0024689823228296816,1.619365473624195,0.7770778105783339,0.3089163048673791,0.00468695806545736,0.49867922931987346,0.9999485670661418,0.0030367634905805606,0.007881091223906,0.005615130541005488,0.3551635106570925,-0.0063442333272868195,0.5066601050657638,0.9996541147022224,0.0075628251448703054,0.02506400331162985,0.002500074546567262,0.08084485679864883,0.08080349117517471
1780538692.706333,0.0031179783635129073,-0.7869214314003417,0.006213741146056013,-2.3351385073080335,-0.0003139875568752804,1.5687780775683264,0.7849330339310513,0.004471906015380012,-0.7349330565091735,-0.00481024299976497,-2.3094542314680817,-0.0029575514945223962,1.6229839156777377,0.7765315426644845,0.3089163048673791,0.00468695806545736,0.49867922931987346,0.9999485670661418,0.0030367634905805606,0.007881091223906,0.005615130541005488,0.36122205810058045,-0.00744692828916401,0.5087846741613821,0.9995403622692944,0.007202699551888494,0.029426538359719125,0.0011243459862152199,0.08084485679864883,0.08080349117517471
1780538692.7388756,0.003165896837714335,-0.7869053477205643,0.006232925398153181,-2.3351401783248744,-0.00031450925475690154,1.568778533842109,0.7849354563922969,0.0044638550782071735,-0.7297660468487569,-0.005837500479631534,-2.304704736864089,-0.0035859970995830797,1.6269819497941216,0.7759282818953257,0.3089163048673791,0.00468695806545736,0.49867922931987346,0.9999485670661418,0.0030367634905805606,0.007881091223906,0.005615130541005488,0.3663753738131029,-0.007974469206740754,0.5105476392217357,0.9994295410615015,0.007600082208566456,0.032906398657790575,1.1462728853951019e-05,0.08084485679864883,0.08080349117517471
1780538692.7773108,0.0031810459049754925,-0.7868878980020354,0.0062423508356419435,-2.335144416831796,-0.0003130718137071934,1.5687738382589247,0.7849343604632567,0.0044560276656272265,-0.7217304001095997,-0.007617597967360085,-2.297696712722089,-0.004432231412212911,1.6336101939495096,0.7749166579388894,0.3089163048673791,0.00468695806545736,0.49867922931987346,0.9999485670661418,0.0030367634905805606,0.007881091223906,0.005615130541005488,0.37161658716523616,-0.008580898879739863,0.5126386035386793,0.9993008216141208,0.007484801814714003,0.03660218173064719,-0.0014580657371618794,0.08084485679864883,0.08080349117517471
1780538692.8103602,0.0032045922692698113,-0.7868815777934995,0.006265123200024883,-2.3351480440519174,-0.00031496847768472684,1.5687766388884823,0.784933661478684,0.0044507524860227755,-0.7151945126108815,-0.009099203232576994,-2.2923900637827455,-0.004802077631411014,1.6397568229375497,0.774007164965065,0.3089163048673791,0.00468695806545736,0.49867922931987346,0.9999485670661418,0.0030367634905805606,0.007881091223906,0.005615130541005488,0.37666292039076105,-0.008425267444911464,0.5144116703262007,0.99916142411788,0.007903991622758174,0.040078213889008486,-0.0027770924767143287,0.08084485679864883,0.08080349117517471
1780538692.842262,0.003222538471558244,-0.7868716923871086,0.006282095269862237,-2.335145788503598,-0.0003145107160255845,1.5687770966461727,0.7849320829721413,0.0044452693852736975,-0.7076132486560521,-0.010722589717711435,-2.2863668476535555,-0.004976086804392525,1.6464446771223602,0.7729013890967213,0.3089163048673791,0.00468695806545736,0.49867922931987346,0.9999485670661418,0.0030367634905805606,0.007881091223906,0.005615130541005488,0.38510728155565876,-0.007776848497265818,0.5167667199557379,0.9989401966386837,0.009034305164057102,0.044738399502029735,-0.005944785922739615,0.08084485679864883,0.08080349117517471
1780538692.8733592,0.0032469242622926563,-0.7868529696841263,0.00628524101445857,-2.3351520739318077,-0.0003145107160255845,1.5687776198073131,0.7849333338230965,0.004442934007137626,-0.7000482896980499,-0.012326298181102317,-2.280169069886606,-0.004985523592687156,1.653794750928758,0.771788316739,0.3089163048673791,0.00468695806545736,0.49867922931987346,0.9999485670661418,0.0030367634905805606,0.007881091223906,0.005615130541005488,0.39106215780142595,-0.006917084247128643,0.5184530355653897,0.998755134121768,0.010772097625238175,0.04831299289215111,-0.006164308230811753,0.08084485679864883,0.08080349117517471
1780538692.9053555,0.0032671875703131096,-0.7868406299986912,0.006294714526392327,-2.3351554044765335,-0.0003159494061089516,1.5687782112606043,0.7849302616648689,0.0044455069497073,-0.6910683401817886,-0.013901380198515974,-2.272664140322719,-0.004984094470944787,1.6607620736055972,0.7705380318124554,0.3089163048673791,0.00468695806545736,0.49867922931987346,0.9999485670661418,0.0030367634905805606,0.007881091223906,0.005615130541005488,0.3954287602613803,-0.005958972173913483,0.5190976824335389,0.9986107811343531,0.011832940328064806,0.051164440015137196,-0.004323124259938578,0.08084485679864883,0.08080349117517471
1780538692.9440966,0.0032876868334538235,-0.7867994530801504,0.006306725497406713,-2.335154068382298,-0.00031254692335930105,1.5687785876680043,0.7849333220668541,0.0044414447306045345,-0.678511085399368,-0.015485550183698812,-2.262305470181297,-0.004967523493143263,1.6703317961480286,0.7685491619508855,0.3089163048673791,0.00468695806545736,0.49867922931987346,0.9999485670661418,0.0030367634905805606,0.007881091223906,0.005615130541005488,0.4030215118154524,-0.004652117740673993,0.5192577141364424,0.9984866154394592,0.011858486135108334,0.05366143938264601,-0.002074853782767134,0.08084485679864883,0.08080349117517471
1780538692.977454,0.003298338063063537,-0.7867996011421824,0.0063165074474820756,-2.3351648823944258,-0.00031363246925347657,1.568780641861204,0.7849352301975758,0.004444248847681206,-0.6680935964168759,-0.016207543072956573,-2.2538519394027827,-0.0049480648881100615,1.678664984485314,0.7670927530784131,0.3089163048673791,0.00468695806545736,0.49867922931987346,0.9999485670661418,0.0030367634905805606,0.007881091223906,0.005615130541005488,0.40920675626876174,-0.003476856261023838,0.5185633369757852,0.9984531108388317,0.012090398107652715,0.054260514122898895,-0.0010021661422253026,0.08084485679864883,0.08080349117517471
1780538693.0103223,0.003319253153373605,-0.7867867862053713,0.0063243625142915365,-2.335179269825257,-0.0003135297938715667,1.568776592964047,0.7849368586981972,0.004456270420146354,-0.6572553703897359,-0.016414357471575346,-2.2447436276419963,-0.004886995372058806,1.6858331511351836,0.7660763581601626,0.3089163048673791,0.00468695806545736,0.49867922931987346,0.9999485670661418,0.0030367634905805606,0.007881091223906,0.005615130541005488,0.4153435491541291,-0.0017235289724049515,0.5181807760720749,0.9983586952304659,0.014060431955888797,0.05551510357014061,0.0005414670183471846,0.08084485679864883,0.08080349117517471
1780538693.0423086,0.0033399598704758546,-0.7867443223918805,0.006326672400769567,-2.335179089389666,-0.00031398755754344165,1.568780332361654,0.7849317244479151,0.004577249076030305,-0.6455351990247432,-0.016348538818898955,-2.235811550141537,-0.004657623456310212,1.6941272890882875,0.7654393493267583,0.3089163048673791,0.00468695806545736,0.49867922931987346,0.9999485670661418,0.0030367634905805606,0.007881091223906,0.005615130541005488,0.42188419286286416,0.0006319478036170785,0.5179922241899176,0.998223438449134,0.01655689772938607,0.05708430577327467,0.004149470177011356,0.08084485679864883,0.08080349117517471
1780538693.0739076,0.00336308426949663,-0.7867268451049897,0.006338206638509878,-2.335182588238753,-0.00031284669984932517,1.568782270199317,0.7849319403567042,0.004924216849295928,-0.6333462942582659,-0.01614764453483763,-2.2267633295010314,-0.004395757712853899,1.702310376929431,0.7648132772578512,0.3089163048673791,0.00468695806545736,0.49867922931987346,0.9999485670661418,0.0030367634905805606,0.007881091223906,0.005615130541005488,0.42677913447216775,0.0022152330912769695,0.5171282646104662,0.9981389030400019,0.017862253343299554,0.057978601795625674,0.0061767206044715545,0.08084485679864883,0.08080349117517471
1780538693.1059096,0.0033767746479835305,-0.7867213239202632,0.006348306099599847,-2.3351823339968454,-0.0003125488717175488,1.5687817726066293,0.7849308355530854,0.005582483206672219,-0.620318090114536,-0.01572182665642692,-2.217255027170958,-0.004185918738243892,1.7104300151210394,0.7641602377847161,0.3089163048673791,0.00468695806545736,0.49867922931987346,0.9999485670661418,0.0030367634905805606,0.007881091223906,0.005615130541005488,0.4357802399817112,0.0039476315981115395,0.5146976784676882,0.998143589349118,0.019370351871116607,0.05726383176779167,0.007417417402205421,0.08084485679864883,0.08080349117517471
1780538693.14424,0.0033938948018291046,-0.7867148692294587,0.0063527410409392445,-2.3351845593512115,-0.0003125488717174922,1.5687777705698076,0.7849327241811982,0.00702913862652936,-0.6014951823376652,-0.01464881845042127,-2.2049305520162683,-0.004061959066224432,1.723120606201476,0.763677044910217,0.3089163048673791,0.00468695806545736,0.49867922931987346,0.9999485670661418,0.0030367634905805606,0.007881091223906,0.005615130541005488,0.4436707381935151,0.005305992563527898,0.5116811932767842,0.9981747510903913,0.01977516508611535,0.056503494682301675,0.00796644338080351,0.08084485679864883,0.08080349117517471
1780538693.1775973,0.0034234990876576307,-0.7867023639306137,0.006362963719830589,-2.3351844494625027,-0.00031451071602568633,1.5687823483717895,0.7849356242182512,0.007992608179781455,-0.587322525917344,-0.01333315190532321,-2.1958000310551724,-0.0040554640092017435,1.7329206501084264,0.7635799591409688,0.3089163048673791,0.00468695806545736,0.49867922931987346,0.9999485670661418,0.0030367634905805606,0.007881091223906,0.005615130541005488,0.45147347770813506,0.005943769307510649,0.5087934023495246,0.9981648998862387,0.019467082071128596,0.05665698379738677,0.008823351841193611,0.08084485679864883,0.08080349117517471
1780538693.2109544,0.003440602776749117,-0.7866774859242929,0.0063642848370279856,-2.3351820507665217,-0.00031398755754344165,1.568783303649745,0.7849335625188896,0.00873266273823746,-0.572386297825958,-0.01159945274030311,-2.1869315392132807,-0.004060555491540406,1.7422678608886042,0.7635732574921731,0.3089163048673791,0.00468695806545736,0.49867922931987346,0.9999485670661418,0.0030367634905805606,0.007881091223906,0.005615130541005488,0.45963164898300557,0.0073167310997441755,0.506173717208378,0.998134192140869,0.020082800215601382,0.0569217061565961,0.009205160673086715,0.08084485679864883,0.08080349117517471
1780538693.2433622,0.003452446389532013,-0.7866741900444552,0.006369698221077121,-2.3351898850565,-0.0003149684736838608,1.5687828328579563,0.7849335220756714,0.009192145296313571,-0.5561252704613502,-0.009497774986081153,-2.178016060908811,-0.004058943230962834,1.7536169155288321,0.7635693392600525,0.3089163048673791,0.00468695806545736,0.49867922931987346,0.9999485670661418,0.0030367634905805606,0.007881091223906,0.005615130541005488,0.465812453230372,0.008519374869259522,0.5042513028373494,0.9980968743935746,0.0208923565999196,0.057165495688827346,0.009911854726997155,0.08084485679864883,0.08080349117517471
1780538693.273873,0.003465736822169809,-0.7866729984638922,0.006382683211975246,-2.33518291702409,-0.0003139875575434077,1.568784283979712,0.7849292020167559,0.009419532931616367,-0.5403641119697123,-0.007361850412481971,-2.1693575215441196,-0.004059082463768481,1.763922560890969,0.7635707500053383,0.3089163048673791,0.00468695806545736,0.49867922931987346,0.9999485670661418,0.0030367634905805606,0.007881091223906,0.005615130541005488,0.48001550887410593,0.011990306502059284,0.49979321869142707,0.998026379775862,0.023956217126024103,0.05737834035755457,0.008784702061569418,0.08084485679864883,0.08080349117517471
1780538693.30734,0.0034701966179383065,-0.7866613250369024,0.006384686192432703,-2.3352014639282688,-0.00031307202953166613,1.5687814072540087,0.7849310643641808,0.009674130985808466,-0.5172580841177881,-0.004222181480012116,-2.157578189798552,-0.004063920713498618,1.7790964263881008,0.7635765206048167,0.3089163048673791,0.00468695806545736,0.49867922931987346,0.9999485670661418,0.0030367634905805606,0.007881091223906,0.005615130541005488,0.48623145671104073,0.014062803294231608,0.4976143756823707,0.9979743862806706,0.025849745031593794,0.05744213786867221,0.008905942207142725,0.08084485679864883,0.08080349117517471
1780538693.344383,0.0034851662465341738,-0.7866577045226812,0.006387963893493754,-2.3351903536253658,-0.0003135297938715667,1.5687833037044665,0.7849308743632558,0.009887046271135161,-0.49838454829082224,-0.0017241908852910172,-2.147894737857218,-0.004055705696666847,1.7913596260342857,0.7635788679219155,0.3089163048673791,0.00468695806545736,0.49867922931987346,0.9999485670661418,0.0030367634905805606,0.007881091223906,0.005615130541005488,0.49624062726059626,0.017244556884299933,0.4938394077578889,0.997892069083265,0.0287696881421216,0.05747157515548002,0.008985630421582173,0.08084485679864883,0.08080349117517471
1780538693.3777401,0.003481094023202058,-0.7866489169636641,0.006392270707601038,-2.3351928667281303,-0.00031307381619474864,1.568782349065965,0.7849350126795342,0.010279187494894098,-0.4787366324107128,0.0006695925529673585,-2.137374652046641,-0.004065808423962743,1.8026767589949901,0.7635757105900322,0.3089163048673791,0.00468695806545736,0.49867922931987346,0.9999485670661418,0.0030367634905805606,0.007881091223906,0.005615130541005488,0.5042286115484149,0.019536103404435533,0.49043713354936597,0.997848028619498,0.030047310114381394,0.05741465182345147,0.010001434450299183,0.08084485679864883,0.08080349117517471
1780538693.4110975,0.003483690825686056,-0.786639510539435,0.006392270874813281,-2.3351940960905866,-0.00031163334437746515,1.568782841579254,0.7849299125905779,0.010819527778172537,-0.45878758212118387,0.002956440381626769,-2.126977189284941,-0.004056363206902213,1.8145489733049176,0.763574918979785,0.3089163048673791,0.00468695806545736,0.49867922931987346,0.9999485670661418,0.0030367634905805606,0.007881091223906,0.005615130541005488,0.5118887256272044,0.022255777486602173,0.4868093564745075,0.9977731501836318,0.03224481518410673,0.05728083966996536,0.0113100872268244,0.08084485679864883,0.08080349117517471
1780538693.443817,0.00349036774030992,-0.7866393118208902,0.00639640720703973,-2.335189576503575,-0.00031398755754344165,1.5687828459379145,0.7849331435703925,0.011467994073126085,-0.43766603383304076,0.005545461099435152,-2.1149542811133992,-0.004060614096746334,1.8253160835835427,0.7635776671520638,0.3089163048673791,0.00468695806545736,0.49867922931987346,0.9999485670661418,0.0030367634905805606,0.007881091223906,0.005615130541005488,0.5194364285795291,0.02492681135735006,0.48329942939505305,0.9976969820430753,0.03495862998601734,0.05686679933800465,0.012033010624580778,0.08084485679864883,0.08080349117517471
1780538693.4747972,0.0034883218228579454,-0.786641439332014,0.006395891019203352,-2.335191579650145,-0.00031435289908297897,1.5687820349635266,0.7849325404690196,0.012098190643263567,-0.4166164592868596,0.008330241228927686,-2.1032836475350667,-0.004056552018332488,1.835817369542045,0.7635850830403614,0.3089163048673791,0.00468695806545736,0.49867922931987346,0.9999485670661418,0.0030367634905805606,0.007881091223906,0.005615130541005488,0.529458727069235,0.02767499100410583,0.47848978176624724,0.9976610801013425,0.03654520772294026,0.05628400109747633,0.01299724062904166,0.08084485679864883,0.08080349117517471
1780538693.505867,0.003492380023998948,-0.7866296762380667,0.006399676652327283,-2.335194172943308,-0.00031254887170929953,1.568781786299785,0.7849303271892899,0.012653996502714602,-0.3958050487390898,0.011165471917879016,-2.091070092218644,-0.004057958759799451,1.845788500319541,0.7635999648693227,0.3089163048673791,0.00468695806545736,0.49867922931987346,0.9999485670661418,0.0030367634905805606,0.007881091223906,0.005615130541005488,0.5368303566568051,0.029811693759283057,0.47459599593974483,0.9976297587985505,0.03808280128907543,0.05577891579321499,0.013163478205102976,0.08084485679864883,0.08080349117517471
1780538693.5403214,0.0034974430234881713,-0.7866289927288279,0.006403509009032307,-2.3351905963715835,-0.00031398755754354345,1.568782388175572,0.7849316271034255,0.013253499336506769,-0.3652357623562537,0.01549067405480921,-2.0734751069888064,-0.004052606386926891,1.8589102332514382,0.7636164682820716,0.3089163048673791,0.00468695806545736,0.49867922931987346,0.9999485670661418,0.0030367634905805606,0.007881091223906,0.005615130541005488,0.544252607497803,0.03185918314728207,0.4715186633178235,0.9975876666167679,0.03974399599449723,0.0556776437844259,0.011800939755634825,0.08084485679864883,0.08080349117517471
1780538693.5778835,0.0035009023436828788,-0.7866118758167077,0.006401705952610733,-2.335195319774927,-0.00031307203019969167,1.5687828478779753,0.7849319997979823,0.0135635729297245,-0.3426763153326458,0.018768118420152934,-2.059696524758536,-0.004058195481485198,1.8681406421587812,0.7636510471405421,0.3089163048673791,0.00468695806545736,0.49867922931987346,0.9999485670661418,0.0030367634905805606,0.007881091223906,0.005615130541005488,0.5519336479424497,0.033541308308425985,0.4686718955052906,0.9974923384951181,0.041288714425748364,0.056200686460101984,0.012073091817049556,0.08084485679864883,0.08080349117517471
1780538693.6112406,0.003511717725793037,-0.7866093389230403,0.00641277515357389,-2.3351869326087256,-0.0003154262433693345,1.5687831859660102,0.7849338314755488,0.01380181622968341,-0.3193843655833184,0.02226337226915005,-2.0458138812627094,-0.004060676236824139,1.8776378815805579,0.7637028404479105,0.3089163048673791,0.00468695806545736,0.49867922931987346,0.9999485670661418,0.0030367634905805606,0.007881091223906,0.005615130541005488,0.5592127281549326,0.03498657021834495,0.46645104001612525,0.9973849589669648,0.04209230217721326,0.05747873017158563,0.012152255006797105,0.08084485679864883,0.08080349117517471
1780538693.6438756,0.003519300273803497,-0.7866041900775693,0.0064117228857021175,-2.335196877612367,-0.0003135297938715667,1.5687823881762364,0.7849280017660297,0.013989394682276333,-0.2968869319708701,0.025584765784914663,-2.031590331825742,-0.004072768592577906,1.886002911416132,0.7637900883353819,0.3089163048673791,0.00468695806545736,0.49867922931987346,0.9999485670661418,0.0030367634905805606,0.007881091223906,0.005615130541005488,0.5665277647837677,0.035921067394851375,0.4637671113150479,0.9973148578551566,0.04288895159775435,0.05824832485401603,0.011434368539431545,0.08084485679864883,0.08080349117517471
1780538693.6758058,0.003528001467660288,-0.7865930445584423,0.006423530229878877,-2.3351844948656315,-0.00031163145013661715,1.5687847859959134,0.7849305891963715,0.014203015417233553,-0.2740318918034014,0.028616110121643817,-2.01715280515403,-0.004092577431816571,1.8948097523484637,0.7638699177236555,0.3089163048673791,0.00468695806545736,0.49867922931987346,0.9999485670661418,0.0030367634905805606,0.007881091223906,0.005615130541005488,0.5716560950874029,0.03674610314051295,0.4613379963646705,0.9972430365680667,0.04363491199363054,0.05888092074485445,0.01163433040824162,0.08084485679864883,0.08080349117517471
1780538693.706849,0.003537971257720403,-0.7865750511168235,0.00642655110833375,-2.335193684103429,-0.000312548871753294,1.5687852001528457,0.7849337960733697,0.014509052910945067,-0.25187936742316647,0.031251998781526735,-2.0021243225968957,-0.004138168498785663,1.9015289140838147,0.7638887752006788,0.3089163048673791,0.00468695806545736,0.49867922931987346,0.9999485670661418,0.0030367634905805606,0.007881091223906,0.005615130541005488,0.5803648114706108,0.038300064467600495,0.45773532766411096,0.9971734503572119,0.044275996348561324,0.05974209775010866,0.010753037080361589,0.08084485679864883,0.08080349117517471
1780538693.7446678,0.003543764319311629,-0.7865775024766748,0.006419350796314923,-2.3352003420529326,-0.0003141372950695869,1.5687828459399085,0.7849288406470166,0.014991723321024225,-0.22257443927813564,0.03432113341519371,-1.9817271615114072,-0.0041932948306624635,1.9114834273530807,0.7639045293021284,0.3089163048673791,0.00468695806545736,0.49867922931987346,0.9999485670661418,0.0030367634905805606,0.007881091223906,0.005615130541005488,0.5872868579015789,0.039694442285189306,0.45417672878854515,0.9971612496048612,0.04437148249410167,0.06005368283022638,0.009704071633800429,0.08084485679864883,0.08080349117517471
1780538693.7780247,0.0035470368941579885,-0.7865650470043289,0.006427140055359782,-2.335190387782857,-0.00031307205425349716,1.568784781635263,0.7849308417287719,0.015259910015528616,-0.19996425641061738,0.03650002023803411,-1.9657429984975419,-0.00427704303888785,1.9181707533280339,0.7639015293894497,0.3089163048673791,0.00468695806545736,0.49867922931987346,0.9999485670661418,0.0030367634905805606,0.007881091223906,0.005615130541005488,0.5943404647741121,0.04173290681112381,0.4505943787744637,0.9971509549423762,0.0447299512106216,0.06020048137171459,0.008068863911149943,0.08084485679864883,0.08080349117517471
1780538693.8099017,0.003550372182851145,-0.786566535889079,0.0064306480081504575,-2.33519906562849,-0.00031307268225176486,1.568783761449306,0.7849328120466902,0.015641899434396526,-0.17927301366563483,0.03816567278496432,-1.9505751511939675,-0.004316396891297987,1.9240983185839615,0.763900415486409,0.3089163048673791,0.00468695806545736,0.49867922931987346,0.9999485670661418,0.0030367634905805606,0.007881091223906,0.005615130541005488,0.6011530274992839,0.04452014538087319,0.4472573238960196,0.997065626817308,0.0462710354000052,0.060624499164332595,0.0066179455644498125,0.08084485679864883,0.08080349117517471
1780538693.8428655,0.0035486026635408933,-0.786565700118987,0.006435900904255363,-2.3351974591535964,-0.00031398756355689175,1.568783186181351,0.7849354709576009,0.01603269945279941,-0.15698233481834764,0.03993716717018662,-1.9343036610845472,-0.004318461709418029,1.931455388415915,0.7639025808486101,0.3089163048673791,0.00468695806545736,0.49867922931987346,0.9999485670661418,0.0030367634905805606,0.007881091223906,0.005615130541005488,0.6110918483609544,0.04944021363301385,0.44176044821464955,0.996907034158935,0.04888481264493161,0.061241232951984165,0.006012630341769772,0.08084485679864883,0.08080349117517471
1780538693.8749065,0.0035488405271526732,-0.7865691487465638,0.00643897967835243,-2.3351989901150674,-0.00031398609627475866,1.5687833035420746,0.7849354708174376,0.01651932231477682,-0.13515635301827256,0.041777243421090175,-1.91840562407006,-0.004317388155553225,1.9368891297187147,0.7638960252939325,0.3089163048673791,0.00468695806545736,0.49867922931987346,0.9999485670661418,0.0030367634905805606,0.007881091223906,0.005615130541005488,0.6175204772051647,0.05213647644706577,0.4374774204532775,0.996872263386988,0.049755236893913854,0.06114007520731579,0.005656685865214085,0.08084485679864883,0.08080349117517471
1780538693.9068305,0.003548524212071566,-0.7865673173851501,0.006436735623218189,-2.335211860469807,-0.00031246469136760806,1.568781411640654,0.7849353760352682,0.017011661626046608,-0.11410792406235293,0.04376509728846158,-1.90258763305855,-0.004304341824083911,1.9433468051911824,0.7639055933562083,0.3089163048673791,0.00468695806545736,0.49867922931987346,0.9999485670661418,0.0030367634905805606,0.007881091223906,0.005615130541005488,0.6221164850657737,0.05397590447815593,0.43419963464489064,0.9968836256446848,0.05029658560568936,0.06061952011404584,0.0043086168384452615,0.08084485679864883,0.08080349117517471
1780538693.9448082,0.0035530312872283495,-0.7865541783040141,0.006441028660853265,-2.3352097795817826,-0.0003148658043155647,1.5687773128183327,0.7849335625757509,0.017672160485097742,-0.08589130382323423,0.046933197515537935,-1.8819395894856272,-0.004307354696805545,1.9526553384011682,0.7641227981916555,0.3089163048673791,0.00468695806545736,0.49867922931987346,0.9999485670661418,0.0030367634905805606,0.007881091223906,0.005615130541005488,0.6293143523420439,0.056655896499582845,0.4292022278823852,0.9969105082271563,0.05037112032666024,0.06016026304945853,0.003596049656213719,0.08084485679864883,0.08080349117517471
1780538693.9781651,0.0035663649320605765,-0.78656518668703,0.006443560288122328,-2.335200120790323,-0.00031358239955240296,1.5687782152577423,0.7849353409694158,0.018164444113316396,-0.0643412901388635,0.049742503593291666,-1.8665192134684114,-0.004304480579893856,1.9585519186159162,0.7645535804308871,0.3089163048673791,0.00468695806545736,0.49867922931987346,0.9999485670661418,0.0030367634905805606,0.007881091223906,0.005615130541005488,0.6348595149154809,0.0581975763882645,0.4256621590805098,0.9968924500004874,0.05026794850584081,0.06052620286296407,0.003892974702094962,0.08084485679864883,0.08080349117517471
1780538694.011522,0.0035616228338315992,-0.7865542180403422,0.006441174838647845,-2.3352118743581394,-0.00031446099055667983,1.5687818669558213,0.7849312208007149,0.018748443124275455,-0.042355149240113035,0.0525550453253625,-1.8504275957088354,-0.004312921628511541,1.9660097732607766,0.7652808915398758,0.3089163048673791,0.00468695806545736,0.49867922931987346,0.9999485670661418,0.0030367634905805606,0.007881091223906,0.005615130541005488,0.6405827143121448,0.05904835968720103,0.4223965352404705,0.9968585383038313,0.05008658027903739,0.06127214577810127,0.0031801318286340673,0.08084485679864883,0.08080349117517471
1780538694.0443013,0.0035675551452987266,-0.7865595985418236,0.006449832762220209,-2.33520807745459,-0.00031111018789624156,1.5687823881771228,0.7849278329995637,0.0194410317468495,-0.022579363383966655,0.05478394837520292,-1.8365926807117194,-0.004309194890376106,1.9721748551483185,0.7658201694112501,0.3089163048673791,0.00468695806545736,0.49867922931987346,0.9999485670661418,0.0030367634905805606,0.007881091223906,0.005615130541005488,0.6460529191550393,0.05937440101884217,0.4187677983199582,0.9968516135107002,0.049247473467428936,0.06205210481904242,0.0033291569075290708,0.08084485679864883,0.08080349117517471
1780538694.0763493,0.0035662118415530127,-0.7865551384553509,0.006450808958928107,-2.3352056493226,-0.0003135297939705552,1.5687818650177545,0.7849350145073488,0.02014778876870395,-0.0021508316309132676,0.05693736146500845,-1.8212233886505031,-0.004337369957281931,1.9779888976424835,0.7663693011880996,0.3089163048673791,0.00468695806545736,0.49867922931987346,0.9999485670661418,0.0030367634905805606,0.007881091223906,0.005615130541005488,0.650244633603311,0.0593067408842955,0.4154803088017309,0.996890471978855,0.0482877214025642,0.062190039589460434,0.0031751874567693913,0.08084485679864883,0.08080349117517471
1780538694.1073298,0.0035638808657044033,-0.7865425975298964,0.006455286094136164,-2.335198150678819,-0.00031111018589165593,1.568784236778183,0.7849328123179622,0.020744461354454995,0.018050196455226968,0.05880714076338271,-1.8062234863560578,-0.004366660453003956,1.9844174214598291,0.7670203478161265,0.3089163048673791,0.00468695806545736,0.49867922931987346,0.9999485670661418,0.0030367634905805606,0.007881091223906,0.005615130541005488,0.6570622591077864,0.0593096130732973,0.4094277292589883,0.9970077374582859,0.04613414589710825,0.06196273493499701,0.002798483523173785,0.08084485679864883,0.08080349117517471
1780538694.1408646,0.0035701438581125108,-0.7865493575849968,0.006456620939870825,-2.3352046876688846,-0.0003134271164852748,1.5687837614672522,0.7849354547589733,0.02128228389174665,0.03669833035602924,0.0601716568543352,-1.7922586346860667,-0.004414314133280324,1.98973986622033,0.7675519483726057,0.3089163048673791,0.00468695806545736,0.49867922931987346,0.9999485670661418,0.0030367634905805606,0.007881091223906,0.005615130541005488,0.662229407788604,0.059196509334766494,0.4040200258489746,0.9971306193981017,0.04390440247375193,0.061612455591415635,0.002614692749941342,0.08084485679864883,0.08080349117517471
1780538694.1738195,0.0035685063734940308,-0.7865430873448194,0.006454400431367024,-2.335204687620908,-0.00031209111613784903,1.5687833080640095,0.7849311944214336,0.021736418949024883,0.05692628827752237,0.06128973754086275,-1.7770404333058565,-0.004465109199692555,1.9956367110947932,0.7683401540090767,0.3089163048673791,0.00468695806545736,0.49867922931987346,0.9999485670661418,0.0030367634905805606,0.007881091223906,0.005615130541005488,0.6669602748331341,0.05948222701924429,0.3985293075949591,0.9971980146484379,0.04301010431813871,0.06110623953215685,0.003503997430798596,0.0808442011475563,0.08080349117517471
1780538694.2116623,0.0035713852231563942,-0.786558995248142,0.006461348247371994,-2.335205741348491,-0.000311111647828602,1.5687828459399331,0.7849332226114717,0.022336273530484896,0.08153118400621635,0.0620682779729727,-1.7589811879359922,-0.004498665168344585,2.0021709759921746,0.7692793027961411,0.3089163048673791,0.00468695806545736,0.49867922931987346,0.9999485670661418,0.0030367634905805606,0.007881091223906,0.005615130541005488,0.6713169040446952,0.06002212658989521,0.39275890318894663,0.9972502526640339,0.04237208560238711,0.060621717953165156,0.004641900002297146,0.0808442011475563,0.08080349117517471
1780538694.245019,0.0035635850812735393,-0.7865480189338988,0.006461809577683778,-2.3352118880544106,-0.0003140007336835552,1.568780955304609,0.7849335822775051,0.02277899493720729,0.09974540439992058,0.06235825461879171,-1.745462947489773,-0.004535977705916428,2.0078475910051763,0.7700368040552957,0.3089163048673791,0.00468695806545736,0.49867922931987346,0.9999485670661418,0.0030367634905805606,0.007881091223906,0.005615130541005488,0.6777904139305493,0.059434702838115874,0.38337250467680317,0.9973327772859567,0.040905511269102336,0.06013287358672029,0.006173168805160627,0.0808442011475563,0.08080349117517471
1780538694.2768738,0.0035726148708592705,-0.786536540414467,0.006464900170120395,-2.3352001310394694,-0.0003140032449578528,1.568783726743552,0.7849340466930183,0.023302318612584447,0.11726206902517447,0.06249360090925278,-1.733612107586429,-0.004670075209837038,2.012962319100777,0.7709969781005959,0.3089163048673791,0.00468695806545736,0.49867922931987346,0.9999485670661418,0.0030367634905805606,0.007881091223906,0.005615130541005488,0.6822742189299864,0.057685844479296054,0.37645063565362635,0.9974602054761711,0.038189834292204634,0.059843764577494414,0.005779177221863667,0.0808442011475563,0.08080349117517471
1780538694.3073509,0.0035727277971777053,-0.7865412820646244,0.00646366953415211,-2.3352053282475493,-0.0003125488719402692,1.5687832993431512,0.7849332330712727,0.023852927138731977,0.13595043510146,0.06253315628921022,-1.7206885839076276,-0.004942754071033493,2.0185612952505116,0.7720121481838452,0.3089163048673791,0.00468695806545736,0.49867922931987346,0.9999485670661418,0.0030367634905805606,0.007881091223906,0.005615130541005488,0.6858287036133105,0.05629457663829844,0.3714688024660448,0.9975167317330493,0.03613224153902334,0.06021106971123843,0.005427533344876968,0.0808442011475563,0.08080349117517471
1780538694.3408492,0.0035736684584244138,-0.786537929388795,0.006463327436190024,-2.3352022289266507,-0.0003112579750595911,1.568783761467252,0.7849332225316338,0.024309525097603854,0.15400847577356128,0.06254310384541528,-1.7091532203990638,-0.005342658478857452,2.024494502429249,0.773213539789807,0.3089163048673791,0.00468695806545736,0.49867922931987346,0.9999485670661418,0.0030367634905805606,0.007881091223906,0.005615130541005488,0.6917090383040536,0.05308794447176857,0.3624746962453448,0.9976546362714459,0.032274699501501455,0.06016732485198839,0.004843915599170424,0.0808442011475563,0.08080349117517471
1780538694.378446,0.0035689266826260157,-0.7865451265222331,0.006467030738277326,-2.3352132194825126,-0.00031307203019969167,1.5687823751168828,0.7849279639985118,0.024450833145409023,0.17762498865445076,0.06251189645545863,-1.6946321110312357,-0.006438309714209504,2.0337286851164684,0.7753175722167697,0.3089163048673791,0.00468695806545736,0.49867922931987346,0.9999485670661418,0.0030367634905805606,0.007881091223906,0.005615130541005488,0.696308852220749,0.05100147019683879,0.3560644110314891,0.9977111013858841,0.029977742716902837,0.060473790603125806,0.004100458883408274,0.08084485679864883,0.08080349117517471
1780538694.411348,0.0035844851417866207,-0.786529843091053,0.006478912864457226,-2.335191874936003,-0.0003120912704097775,1.5687837614673505,0.7849321234013585,0.024434925777352477,0.19571096496044724,0.06228685367048503,-1.6846053282764097,-0.00786599363041282,2.041446952711715,0.7774574497103597,0.3089163048673791,0.00468695806545736,0.49867922931987346,0.9999485670661418,0.0030367634905805606,0.007881091223906,0.005615130541005488,0.7006876861392818,0.04973597216394418,0.34958289583352964,0.9977437874211148,0.029284403467906398,0.060269079097465886,0.004170908874758296,0.08084485679864883,0.08080349117517471
1780538694.4433048,0.0035868009342673586,-0.7865294436756728,0.006477788730283215,-2.3352053374847213,-0.00031253572631285325,1.5687837614672768,0.7849330390965705,0.024428233775286325,0.21373424277184394,0.061603202218834786,-1.6750008611015137,-0.009307298348377844,2.0503321739324187,0.7793599484796343,0.3089163048673791,0.00468695806545736,0.49867922931987346,0.9999485670661418,0.0030367634905805606,0.007881091223906,0.005615130541005488,0.7048634196181656,0.049510045210452366,0.3425726304906751,0.997753346329695,0.029092278577231234,0.06019328709800137,0.004320579060491491,0.08084485679864883,0.08080349117517471
1780538694.4743383,0.0035873990303687923,-0.7865520139502034,0.00647564106415001,-2.335218829621719,-0.00031482913898348415,1.5687804904885296,0.7849331036748262,0.024409575469492444,0.23062610152569904,0.060594733314457326,-1.6659784522824275,-0.01031622543634037,2.0577344403453277,0.7809134899543086,0.3089163048673791,0.00468695806545736,0.49867922931987346,0.9999485670661418,0.0030367634905805606,0.007881091223906,0.005615130541005488,0.7081789872042518,0.04898511691232163,0.3371804611552234,0.9977462646843505,0.028140725038511,0.06066911979279682,0.005454246629920021,0.08084485679864883,0.08080349117517471
1780538694.510814,0.0035827900479731213,-0.7865195714169386,0.006475507253249771,-2.3352174348014336,-0.0003130851816178385,1.568781904341373,0.7849328827613826,0.024366035854323186,0.24792020308575707,0.0593609651461255,-1.6574603952474618,-0.010969391675541475,2.067129800856475,0.782178876996914,0.3089163048673791,0.00468695806545736,0.49867922931987346,0.9999485670661418,0.0030367634905805606,0.007881091223906,0.005615130541005488,0.7133494482228984,0.04819390969140829,0.3290491260716345,0.9978150817128321,0.026774097878376396,0.060213438191944454,0.004748920963564026,0.08084485679864883,0.08080349117517471
1780538694.5427916,0.00359602979923678,-0.7865253462632958,0.006482105770002463,-2.335203065885648,-0.00031429516620841273,1.5687846523799283,0.7849349344989979,0.02435979995615525,0.2653363804132009,0.057816513229562994,-1.6489297013277837,-0.011264775184397237,2.0764135890445132,0.7831010491748561,0.3089163048673791,0.00468695806545736,0.49867922931987346,0.9999485670661418,0.0030367634905805606,0.007881091223906,0.005615130541005488,0.717124221338907,0.04869372480134433,0.32240060536217424,0.9979030302061231,0.026284008985722564,0.05904146514910663,0.0035775089269825815,0.08084485679864883,0.08080349117517471
1780538694.578586,0.0035960035207692224,-0.7865384295233544,0.006480878880238602,-2.3352010033528487,-0.0003121437137182608,1.5687853442639461,0.7849311802556935,0.02434444321002466,0.2873142904824055,0.05579851836846924,-1.638302665320806,-0.011361882631872896,2.0882984767627706,0.7839728525240707,0.3089163048673791,0.00468695806545736,0.49867922931987346,0.9999485670661418,0.0030367634905805606,0.007881091223906,0.005615130541005488,0.7198831474624225,0.05025177235292766,0.31636296168877087,0.9979601089175657,0.027631852758966527,0.057449833218234436,0.003408575295438122,0.08084485679864883,0.08080349117517471
1780538694.6119428,0.003596040394450853,-0.7865111530410578,0.00647893981494386,-2.3352164130868784,-0.0003116333445968247,1.5687851094727017,0.784932501042732,0.024304649203054144,0.30407123518635876,0.05440165813377651,-1.630302171113583,-0.01136729934798473,2.097141787317778,0.7843568699270131,0.3089163048673791,0.00468695806545736,0.49867922931987346,0.9999485670661418,0.0030367634905805606,0.007881091223906,0.005615130541005488,0.722293622752237,0.052446756237212,0.31130773694505265,0.9979789786294788,0.028517363745785194,0.05670569309578182,0.0030302721297114314,0.08084485679864883,0.08080349117517471
